;FLAVOR:Marlin
;TIME:18631
;Filament used: 7.31799m
;Layer height: 0.2
;MINX:71.5
;MINY:56.5
;MINZ:0.2
;MAXX:163.5
;MAXY:178.5
;MAXZ:18
;Generated with Cura_SteamEngine 4.11.0
M140 S60
M105
M190 S60
M104 S195
M105
M109 S195
M82 ;absolute extrusion mode
; Ender 3 Custom Start G-code
M221 S95 ;Set flowrate to 95 percent
G92 E0 ; Reset Extruder
G28 ; Home all axes
; M420 S1 ; Enable Mesh stored in EEPROM
G1 Z2.0 F3000 ; Move Z Axis up little to prevent scratching of Heat Bed
G1 X0.1 Y20 Z0.3 F5000.0 ; Move to start position
G1 X0.1 Y200.0 Z0.3 F1500.0 E15 ; Draw the first line
G1 X0.4 Y200.0 Z0.3 F5000.0 ; Move to side a little
G1 X0.4 Y20 Z0.3 F1500.0 E30 ; Draw the second line
G92 E0 ; Reset Extruder
G1 Z2.0 F3000 ; Move Z Axis up little to prevent scratching of Heat Bed
G1 X5 Y20 Z0.3 F5000.0 ; Move over to prevent blob squish
G92 E0
G92 E0
G1 F2700 E-6.5
;LAYER_COUNT:89
;LAYER:0
M107
G1 F300 Z0.4
G0 F6000 X74.066 Y60.458 Z0.4
;TYPE:SKIRT
G1 F300 Z0.2
G1 F2700 E0
G1 F1200 X74.698 Y59.764 E0.02966
G1 X75.386 Y59.127 E0.05928
G1 X76.126 Y58.551 E0.08891
G1 X76.912 Y58.039 E0.11855
G1 X77.739 Y57.597 E0.14818
G1 X78.601 Y57.227 E0.17782
G1 X79.491 Y56.931 E0.20746
G1 X80.403 Y56.713 E0.23709
G1 X81.33 Y56.572 E0.26671
G1 X82.201 Y56.513 E0.2943
G1 X82.522 Y56.504 E0.30445
G1 X82.83 Y56.5 E0.31418
G1 X151.793 Y56.5 E2.49321
G1 X152.649 Y56.511 E2.52026
G1 X153.585 Y56.565 E2.54988
G1 X154.513 Y56.697 E2.5795
G1 X155.427 Y56.909 E2.60915
G1 X156.319 Y57.198 E2.63878
G1 X157.184 Y57.561 E2.66842
G1 X158.014 Y57.997 E2.69804
G1 X158.805 Y58.502 E2.72769
G1 X159.549 Y59.073 E2.75733
G1 X160.242 Y59.705 E2.78696
G1 X160.879 Y60.393 E2.81659
G1 X161.454 Y61.134 E2.84622
G1 X161.965 Y61.92 E2.87585
G1 X162.407 Y62.748 E2.9055
G1 X162.776 Y63.61 E2.93513
G1 X163.071 Y64.5 E2.96476
G1 X163.289 Y65.412 E2.99438
G1 X163.429 Y66.34 E3.02404
G1 X163.487 Y67.201 E3.0513
G1 X163.496 Y67.521 E3.06142
G1 X163.5 Y67.83 E3.07118
G1 X163.499 Y166.9 E6.20151
G1 X163.49 Y167.627 E6.22448
G1 X163.439 Y168.564 E6.25413
G1 X163.307 Y169.492 E6.28375
G1 X163.098 Y170.406 E6.31338
G1 X162.811 Y171.299 E6.34301
G1 X162.449 Y172.165 E6.37267
G1 X162.015 Y172.996 E6.40229
G1 X161.511 Y173.787 E6.43193
G1 X160.942 Y174.532 E6.46155
G1 X160.311 Y175.227 E6.49121
G1 X159.624 Y175.865 E6.52084
G1 X158.885 Y176.442 E6.55046
G1 X158.099 Y176.954 E6.5801
G1 X157.273 Y177.397 E6.60972
G1 X156.411 Y177.769 E6.63938
G1 X155.522 Y178.065 E6.66899
G1 X154.61 Y178.285 E6.69863
G1 X153.683 Y178.426 E6.72826
G1 X152.799 Y178.487 E6.75626
G1 X152.478 Y178.496 E6.7664
G1 X152.17 Y178.5 E6.77613
G1 X83.065 Y178.499 E8.95965
G1 X82.367 Y178.49 E8.98171
G1 X81.431 Y178.438 E9.01133
G1 X80.502 Y178.306 E9.04098
G1 X79.588 Y178.096 E9.07061
G1 X78.695 Y177.809 E9.10025
G1 X77.83 Y177.446 E9.12989
G1 X76.999 Y177.012 E9.15951
G1 X76.208 Y176.508 E9.18915
G1 X75.463 Y175.938 E9.21879
G1 X74.769 Y175.307 E9.24843
G1 X74.132 Y174.62 E9.27803
G1 X73.555 Y173.88 E9.30768
G1 X73.043 Y173.094 E9.33732
G1 X72.6 Y172.267 E9.36696
G1 X72.229 Y171.406 E9.39658
G1 X71.933 Y170.516 E9.42622
G1 X71.714 Y169.604 E9.45586
G1 X71.573 Y168.677 E9.48548
G1 X71.513 Y167.788 E9.51364
G1 X71.504 Y167.455 E9.52416
G1 X71.5 Y167.158 E9.53355
G1 X71.501 Y102.557 E11.57475
G1 X71.511 Y101.832 E11.59766
G1 X71.52 Y101.515 E11.60768
G1 X71.547 Y100.871 E11.62805
G1 X71.622 Y98.237 E11.71131
G1 X71.622 Y95.747 E11.78999
G1 X71.549 Y93.179 E11.87116
G1 X71.531 Y92.808 E11.8829
G1 X71.505 Y91.998 E11.90851
G1 X71.5 Y91.667 E11.91897
G1 X71.501 Y68.025 E12.66599
G1 X71.51 Y67.36 E12.687
G1 X71.563 Y66.424 E12.71662
G1 X71.695 Y65.495 E12.74627
G1 X71.906 Y64.581 E12.77591
G1 X72.194 Y63.689 E12.80553
G1 X72.557 Y62.824 E12.83517
G1 X72.992 Y61.993 E12.8648
G1 X73.496 Y61.203 E12.89441
G1 X74.066 Y60.458 E12.92405
G0 F6000 X74.461 Y60.611
G1 F1200 X75.089 Y59.939 E12.95311
G1 X75.774 Y59.323 E12.98222
G1 X76.51 Y58.77 E13.01131
G1 X77.291 Y58.282 E13.04041
G1 X78.111 Y57.864 E13.06949
G1 X78.965 Y57.519 E13.09859
G1 X79.845 Y57.249 E13.12768
G1 X80.745 Y57.057 E13.15676
G1 X81.659 Y56.943 E13.18586
G1 X82.212 Y56.913 E13.20336
G1 X82.533 Y56.904 E13.21351
G1 X82.83 Y56.9 E13.22289
G1 X151.793 Y56.9 E15.40192
G1 X152.643 Y56.911 E15.42878
G1 X153.562 Y56.964 E15.45787
G1 X154.473 Y57.097 E15.48696
G1 X155.369 Y57.308 E15.51605
G1 X156.243 Y57.596 E15.54512
G1 X157.09 Y57.959 E15.57424
G1 X157.901 Y58.394 E15.60332
G1 X158.671 Y58.898 E15.6324
G1 X159.395 Y59.467 E15.66149
G1 X160.067 Y60.097 E15.6906
G1 X160.682 Y60.782 E15.71968
G1 X161.235 Y61.518 E15.74877
G1 X161.722 Y62.299 E15.77785
G1 X162.139 Y63.12 E15.80695
G1 X162.484 Y63.974 E15.83605
G1 X162.753 Y64.854 E15.86513
G1 X162.945 Y65.755 E15.89424
G1 X163.058 Y66.668 E15.9233
G1 X163.087 Y67.212 E15.94052
G1 X163.096 Y67.532 E15.95063
G1 X163.1 Y67.83 E15.96005
G1 X163.099 Y166.895 E19.09022
G1 X163.09 Y167.622 E19.11319
G1 X163.039 Y168.541 E19.14227
G1 X162.908 Y169.453 E19.17139
G1 X162.698 Y170.349 E19.20047
G1 X162.412 Y171.224 E19.22955
G1 X162.051 Y172.071 E19.25864
G1 X161.617 Y172.883 E19.28774
G1 X161.115 Y173.655 E19.31683
G1 X160.547 Y174.38 E19.34593
G1 X159.919 Y175.053 E19.37502
G1 X159.235 Y175.669 E19.4041
G1 X158.5 Y176.223 E19.43319
G1 X157.72 Y176.712 E19.46227
G1 X156.9 Y177.131 E19.49137
G1 X156.047 Y177.477 E19.52046
G1 X155.167 Y177.748 E19.54955
G1 X154.267 Y177.941 E19.57863
G1 X153.353 Y178.056 E19.60774
G1 X152.788 Y178.087 E19.62562
G1 X152.467 Y178.096 E19.63577
G1 X152.17 Y178.1 E19.64515
G1 X83.07 Y178.099 E21.82851
G1 X82.372 Y178.09 E21.85057
G1 X81.453 Y178.038 E21.87965
G1 X80.542 Y177.907 E21.90874
G1 X79.646 Y177.697 E21.93781
G1 X78.771 Y177.41 E21.96691
G1 X77.924 Y177.048 E21.99602
G1 X77.112 Y176.614 E22.02511
G1 X76.341 Y176.112 E22.05418
G1 X75.616 Y175.544 E22.08328
G1 X74.943 Y174.915 E22.11238
G1 X74.328 Y174.231 E22.14145
G1 X73.774 Y173.496 E22.17053
G1 X73.286 Y172.715 E22.19963
G1 X72.867 Y171.895 E22.22873
G1 X72.521 Y171.042 E22.25781
G1 X72.251 Y170.162 E22.2869
G1 X72.058 Y169.261 E22.31601
G1 X71.944 Y168.348 E22.34508
G1 X71.913 Y167.777 E22.36315
G1 X71.904 Y167.444 E22.37368
G1 X71.9 Y167.158 E22.38271
G1 X71.901 Y102.563 E24.42373
G1 X71.911 Y101.838 E24.44664
G1 X71.92 Y101.532 E24.45631
G1 X71.947 Y100.9 E24.4763
G1 X72.022 Y98.248 E24.56013
G1 X72.022 Y95.736 E24.6395
G1 X71.949 Y93.146 E24.72137
G1 X71.931 Y92.788 E24.7327
G1 X71.905 Y91.986 E24.75805
G1 X71.9 Y91.667 E24.76813
G1 X71.901 Y68.031 E25.51496
G1 X71.91 Y67.366 E25.53598
G1 X71.962 Y66.446 E25.56509
G1 X72.094 Y65.535 E25.59418
G1 X72.305 Y64.639 E25.62326
G1 X72.592 Y63.764 E25.65236
G1 X72.955 Y62.918 E25.68145
G1 X73.389 Y62.106 E25.71054
G1 X73.892 Y61.335 E25.73963
G1 X74.461 Y60.611 E25.76872
G0 F6000 X74.855 Y60.767
G1 F1200 X75.481 Y60.117 E25.79724
G1 X76.162 Y59.524 E25.82577
G1 X76.894 Y58.994 E25.85432
G1 X77.669 Y58.531 E25.88285
G1 X78.482 Y58.138 E25.91138
G1 X79.327 Y57.818 E25.93993
G1 X80.196 Y57.575 E25.96844
G1 X81.084 Y57.409 E25.99699
G1 X82.223 Y57.313 E26.0331
G1 X82.544 Y57.304 E26.04325
G1 X82.83 Y57.3 E26.05229
G1 X151.793 Y57.3 E28.23132
G1 X152.637 Y57.311 E28.25799
G1 X153.539 Y57.364 E28.28654
G1 X154.432 Y57.496 E28.31506
G1 X155.31 Y57.707 E28.3436
G1 X156.166 Y57.995 E28.37213
G1 X156.993 Y58.357 E28.40066
G1 X157.785 Y58.792 E28.42921
G1 X158.536 Y59.294 E28.45775
G1 X159.239 Y59.861 E28.48629
G1 X159.889 Y60.488 E28.51482
G1 X160.481 Y61.17 E28.54336
G1 X161.011 Y61.901 E28.57189
G1 X161.473 Y62.677 E28.60043
G1 X161.866 Y63.49 E28.62896
G1 X162.184 Y64.335 E28.65749
G1 X162.427 Y65.205 E28.68603
G1 X162.592 Y66.093 E28.71457
G1 X162.687 Y67.223 E28.7504
G1 X162.696 Y67.543 E28.76051
G1 X162.7 Y67.83 E28.76958
G1 X162.699 Y166.89 E31.89959
G1 X162.69 Y167.617 E31.92256
G1 X162.639 Y168.519 E31.95111
G1 X162.508 Y169.413 E31.97966
G1 X162.299 Y170.291 E32.00818
G1 X162.013 Y171.148 E32.03672
G1 X161.652 Y171.976 E32.06527
G1 X161.22 Y172.768 E32.09377
G1 X160.719 Y173.52 E32.12232
G1 X160.153 Y174.224 E32.15086
G1 X159.528 Y174.875 E32.17938
G1 X158.847 Y175.469 E32.20793
G1 X158.116 Y176 E32.23648
G1 X157.342 Y176.464 E32.26499
G1 X156.529 Y176.858 E32.29354
G1 X155.685 Y177.178 E32.32206
G1 X154.815 Y177.423 E32.35062
G1 X153.928 Y177.589 E32.37913
G1 X152.777 Y177.687 E32.41563
G1 X152.456 Y177.696 E32.42578
G1 X152.17 Y177.7 E32.43482
G1 X83.075 Y177.699 E34.61802
G1 X82.377 Y177.69 E34.64008
G1 X81.476 Y177.639 E34.66859
G1 X80.582 Y177.507 E34.69715
G1 X79.704 Y177.298 E34.72566
G1 X78.847 Y177.011 E34.75422
G1 X78.02 Y176.65 E34.78273
G1 X77.227 Y176.217 E34.81128
G1 X76.476 Y175.716 E34.83981
G1 X75.772 Y175.15 E34.86835
G1 X75.121 Y174.524 E34.89689
G1 X74.528 Y173.843 E34.92542
G1 X73.998 Y173.112 E34.95395
G1 X73.534 Y172.337 E34.98249
G1 X73.14 Y171.524 E35.01103
G1 X72.82 Y170.68 E35.03955
G1 X72.576 Y169.81 E35.0681
G1 X72.41 Y168.922 E35.09665
G1 X72.313 Y167.767 E35.13327
G1 X72.304 Y167.434 E35.1438
G1 X72.3 Y167.158 E35.15252
G1 X72.301 Y102.568 E37.19338
G1 X72.311 Y101.843 E37.21629
G1 X72.319 Y101.549 E37.22558
G1 X72.348 Y100.859 E37.2474
G1 X72.422 Y98.259 E37.32959
G1 X72.422 Y95.725 E37.40966
G1 X72.349 Y93.162 E37.49067
G1 X72.33 Y92.768 E37.50314
G1 X72.305 Y91.974 E37.52824
G1 X72.3 Y91.667 E37.53794
G1 X72.301 Y68.036 E38.28461
G1 X72.31 Y67.371 E38.30562
G1 X72.362 Y66.469 E38.33417
G1 X72.494 Y65.576 E38.36269
G1 X72.704 Y64.698 E38.39122
G1 X72.991 Y63.841 E38.41978
G1 X73.353 Y63.014 E38.4483
G1 X73.786 Y62.222 E38.47682
G1 X74.288 Y61.471 E38.50536
G1 X74.855 Y60.767 E38.53393
G1 F2700 E32.03393
G1 F300 Z0.4
G0 F6000 X98.593 Y83.388 Z0.4
G1 F300 Z0.2
G1 F2700 E38.53393
G1 F1200 X98.722 Y83.441 E38.53833
G1 X99.052 Y83.493 E38.54889
G1 X99.331 Y83.47 E38.55773
G1 X99.298 Y83.549 E38.56044
G1 X98.882 Y84.131 E38.58304
G1 X98.615 Y84.277 E38.59266
G1 X98.643 Y83.87 E38.60555
G1 X98.593 Y83.388 E38.62086
G0 F6000 X98.671 Y82.996
G1 F1200 X98.94 Y83.081 E38.62977
G1 X99.222 Y83.087 E38.63869
G1 X99.495 Y83.014 E38.64762
G1 X99.742 Y82.862 E38.65678
G1 X100.106 Y82.559 E38.67174
G1 X100.114 Y82.628 E38.67394
G1 X99.648 Y83.748 E38.71227
G1 X99.155 Y84.437 E38.73904
G1 X98.11 Y85.01 E38.7767
G1 X97.03 Y85.045 E38.81084
G1 X95.798 Y84.502 E38.85338
G1 X95.118 Y83.242 E38.89862
G1 X95.151 Y81.882 E38.9416
G1 X95.237 Y81.5 E38.95398
G1 X95.223 Y81.724 E38.96107
G1 X95.343 Y82.127 E38.97435
G1 X95.772 Y82.911 E39.00259
G1 X95.606 Y83.437 E39.02002
G1 X95.56 Y83.716 E39.02895
G1 X95.594 Y83.996 E39.03787
G1 X95.704 Y84.255 E39.04676
G1 X95.883 Y84.474 E39.0557
G1 X96.19 Y84.667 E39.06715
G1 X96.88 Y84.942 E39.09062
G1 X97.154 Y85.008 E39.09953
G1 X97.436 Y84.996 E39.10845
G1 X97.703 Y84.905 E39.11736
G1 X97.934 Y84.743 E39.12627
G1 X98.11 Y84.523 E39.13518
G1 X98.219 Y84.262 E39.14411
G1 X98.245 Y83.911 E39.15523
G1 X98.087 Y82.371 E39.20415
G1 X98.116 Y82.193 E39.20985
G1 X98.14 Y82.366 E39.21537
G1 X98.254 Y82.624 E39.22428
G1 X98.436 Y82.84 E39.2332
G1 X98.671 Y82.996 E39.24212
G0 F6000 X98.963 Y82.678
G1 F1200 X99.181 Y82.689 E39.24901
G1 X99.486 Y82.555 E39.25954
G1 X100.065 Y82.072 E39.28336
G1 X100.303 Y82.072 E39.29088
G1 X100.462 Y82.188 E39.2971
G1 X100.525 Y82.682 E39.31284
G1 X99.999 Y83.945 E39.35607
G1 X99.426 Y84.745 E39.38716
G1 X98.222 Y85.406 E39.43056
G1 X96.951 Y85.447 E39.47074
G1 X95.511 Y84.813 E39.52046
G1 X94.716 Y83.338 E39.5734
G1 X94.752 Y81.832 E39.621
G1 X95.011 Y80.693 E39.65791
G1 X96.174 Y79.947 E39.70156
G1 X97.942 Y79.633 E39.7583
G1 X99.332 Y80.117 E39.80481
G1 X99.628 Y80.333 E39.81639
G1 X99.708 Y80.579 E39.82456
G1 X99.62 Y80.852 E39.83362
G1 X98.709 Y81.641 E39.8717
G1 X98.573 Y81.811 E39.87858
G1 X98.507 Y82.019 E39.88548
G1 X98.519 Y82.237 E39.89238
G1 X98.609 Y82.436 E39.89928
G1 X98.764 Y82.589 E39.90616
G1 X98.963 Y82.678 E39.91305
G0 F6000 X99.002 Y82.267
G1 F1200 X99.125 Y82.293 E39.91702
G1 X99.23 Y82.248 E39.92063
G1 X99.921 Y81.672 E39.94905
G1 X100.432 Y81.672 E39.9652
G1 X100.837 Y81.967 E39.98103
G1 X100.935 Y82.737 E40.00556
G1 X100.35 Y84.141 E40.05362
G1 X99.698 Y85.052 E40.08901
G1 X98.33 Y85.803 E40.13832
G1 X96.874 Y85.85 E40.18435
G1 X95.224 Y85.123 E40.24132
G1 X94.313 Y83.435 E40.30193
G1 X94.353 Y81.785 E40.35408
G1 X94.657 Y80.444 E40.39753
G1 X96.025 Y79.567 E40.44887
G1 X97.974 Y79.221 E40.51142
G1 X99.517 Y79.758 E40.56304
G1 X99.968 Y80.086 E40.58066
G1 X100.129 Y80.579 E40.59705
G1 X99.965 Y81.081 E40.61374
G1 X98.971 Y81.943 E40.65531
G1 X98.907 Y82.05 E40.65925
G1 X98.919 Y82.174 E40.66319
G1 X99.002 Y82.267 E40.66712
G0 F6000 X98.203 Y81.68
G1 F1200 X98.283 Y81.202 E40.68244
G1 X98.29 Y80.92 E40.69135
G1 X98.218 Y80.647 E40.70027
G1 X98.073 Y80.405 E40.70919
G1 X97.866 Y80.213 E40.71811
G1 X97.63 Y80.095 E40.72644
G1 X97.91 Y80.045 E40.73543
G1 X99.143 Y80.474 E40.77668
G1 X99.287 Y80.579 E40.78231
G1 X99.273 Y80.622 E40.78374
G1 X98.447 Y81.338 E40.81828
G1 X98.262 Y81.551 E40.82719
G1 X98.203 Y81.68 E40.83168
G1 F2700 E34.33168
G1 F300 Z0.4
G0 F6000 X96.61 Y80.276 Z0.4
G1 F300 Z0.2
G1 F2700 E40.83168
G1 F1200 X95.727 Y80.777 E40.86376
G1 X95.503 Y80.95 E40.8727
G1 X95.337 Y81.178 E40.88161
G1 X95.266 Y81.374 E40.8882
G1 X95.364 Y80.941 E40.90222
G1 X96.322 Y80.327 E40.93818
G1 X96.61 Y80.276 E40.94742
G1 F2700 E34.44742
G1 F300 Z0.4
G0 F6000 X134.171 Y83.046 Z0.4
G1 F300 Z0.2
G1 F2700 E40.94742
G1 F1200 X134.345 Y81.306 E41.00267
G1 X135.2 Y80.124 E41.04877
G1 X136.464 Y79.414 E41.09457
G1 X137.27 Y79.293 E41.12033
G1 X138.667 Y79.726 E41.16654
G1 X138.82 Y80.197 E41.18219
G1 X138.894 Y80.298 E41.18614
G1 X139.052 Y80.331 E41.19124
G1 X139.865 Y80.156 E41.21752
G1 X140.589 Y80.916 E41.25069
G1 X140.743 Y82.078 E41.28772
G1 X140.038 Y83.389 E41.33476
G1 X140.014 Y83.48 E41.33773
G1 X139.985 Y84.767 E41.37841
G1 X139.591 Y85.054 E41.39381
G1 X139.091 Y85.054 E41.40961
G1 X138.53 Y84.484 E41.43488
G1 X138.325 Y84.239 E41.44497
G1 X138.219 Y84.173 E41.44892
G1 X138.095 Y84.182 E41.45285
G1 X137.978 Y84.319 E41.45854
G1 X137.789 Y85.089 E41.48359
G1 X136.823 Y85.617 E41.51837
G1 X135.708 Y85.446 E41.55402
G1 X134.716 Y84.44 E41.59866
G1 X134.171 Y83.046 E41.64595
G0 F6000 X134.578 Y82.99
G1 F1200 X134.732 Y81.454 E41.69473
G1 X135.473 Y80.43 E41.73467
G1 X136.598 Y79.798 E41.77544
G1 X137.237 Y79.701 E41.79586
G1 X138.35 Y80.047 E41.83269
G1 X138.439 Y80.321 E41.84179
G1 X138.483 Y80.401 E41.84468
G1 X138.419 Y80.404 E41.8467
G1 X137.444 Y80.659 E41.87854
G1 X136.778 Y80.622 E41.89962
G1 X136.562 Y80.65 E41.9065
G1 X136.369 Y80.753 E41.91341
G1 X136.254 Y80.876 E41.91874
G1 X135.676 Y81.697 E41.95046
G1 X135.569 Y81.997 E41.96052
G1 X135.482 Y83.15 E41.99706
G1 X135.505 Y83.367 E42.00395
G1 X135.621 Y83.582 E42.01167
G1 X135.836 Y83.837 E42.02221
G1 X136.005 Y83.975 E42.02911
G1 X136.212 Y84.044 E42.036
G1 X136.43 Y84.035 E42.04289
G1 X136.63 Y83.948 E42.04979
G1 X136.786 Y83.795 E42.05669
G1 X136.872 Y83.615 E42.06299
G1 X137.091 Y82.847 E42.08823
G1 X137.826 Y82.492 E42.11402
G1 X138.857 Y82.488 E42.1466
G1 X139.071 Y82.447 E42.15348
G1 X139.257 Y82.333 E42.16037
G1 X139.389 Y82.159 E42.16727
G1 X139.451 Y81.95 E42.17416
G1 X139.427 Y81.709 E42.18182
G1 X139.144 Y80.806 E42.21172
G1 X139.1 Y80.723 E42.21468
G1 X139.136 Y80.722 E42.21582
G1 X139.73 Y80.594 E42.23502
G1 X140.209 Y81.096 E42.25695
G1 X140.33 Y82.004 E42.28589
G1 X139.686 Y83.2 E42.32881
G1 X139.614 Y83.471 E42.33767
G1 X139.59 Y84.561 E42.37212
G1 X139.462 Y84.654 E42.37712
G1 X139.259 Y84.654 E42.38353
G1 X138.828 Y84.216 E42.40295
G1 X138.632 Y83.982 E42.41259
G1 X138.464 Y83.843 E42.41948
G1 X138.257 Y83.773 E42.42639
G1 X138.039 Y83.782 E42.43328
G1 X137.839 Y83.868 E42.44016
G1 X137.683 Y84.02 E42.44704
G1 X137.589 Y84.224 E42.45414
G1 X137.442 Y84.823 E42.47363
G1 X136.75 Y85.201 E42.49854
G1 X135.9 Y85.071 E42.52571
G1 X135.058 Y84.217 E42.56361
G1 X134.578 Y82.99 E42.60524
G0 F6000 X134.986 Y82.935
G1 F1200 X135.119 Y81.601 E42.6476
G1 X135.745 Y80.737 E42.68131
G1 X135.927 Y80.645 E42.68775
G1 X135.349 Y81.466 E42.71948
G1 X135.221 Y81.718 E42.72841
G1 X135.17 Y81.967 E42.73644
