;FLAVOR:Marlin
;TIME:2871
;Filament used: 1.9706m
;Layer height: 0.2
;MINX:75.201
;MINY:73.268
;MINZ:0.2
;MAXX:159.77
;MAXY:161.722
;MAXZ:15
;Generated with Cura_SteamEngine 4.11.0
M140 S60
M105
M190 S60
M104 S195
M105
M109 S195
M82 ;absolute extrusion mode
; Ender 3 Custom Start G-code
M221 S95 ;Set flowrate to 95 percent
G92 E0 ; Reset Extruder
G28 ; Home all axes
; M420 S1 ; Enable Mesh stored in EEPROM
G1 Z2.0 F3000 ; Move Z Axis up little to prevent scratching of Heat Bed
G1 X0.1 Y20 Z0.3 F5000.0 ; Move to start position
G1 X0.1 Y200.0 Z0.3 F1500.0 E15 ; Draw the first line
G1 X0.4 Y200.0 Z0.3 F5000.0 ; Move to side a little
G1 X0.4 Y20 Z0.3 F1500.0 E30 ; Draw the second line
G92 E0 ; Reset Extruder
G1 Z2.0 F3000 ; Move Z Axis up little to prevent scratching of Heat Bed
G1 X5 Y20 Z0.3 F5000.0 ; Move over to prevent blob squish
G92 E0
G92 E0
G1 F2700 E-6.5
;LAYER_COUNT:75
;LAYER:0
M107
G0 F6000 X79.101 Y88.394 Z0.2
;TYPE:SKIRT
G1 F2700 E0
G1 F1200 X79.842 Y87.818 E0.03122
G1 X80.629 Y87.309 E0.06239
G1 X81.457 Y86.867 E0.09361
G1 X82.6 Y86.397 E0.13471
G1 X83.515 Y86.079 E0.16693
G1 X83.726 Y86.008 E0.17433
G1 X120.822 Y73.954 E1.47166
G1 X121.466 Y73.754 E1.49408
G1 X122.372 Y73.514 E1.52526
G1 X123.296 Y73.353 E1.55645
G1 X124.23 Y73.27 E1.58764
G1 X125.168 Y73.268 E1.61884
G1 X126.103 Y73.345 E1.65004
G1 X127.028 Y73.502 E1.68125
G1 X127.936 Y73.737 E1.71244
G1 X128.82 Y74.049 E1.74362
G1 X129.675 Y74.434 E1.77481
G1 X130.494 Y74.891 E1.806
G1 X131.271 Y75.417 E1.83721
G1 X132 Y76.006 E1.86838
G1 X132.677 Y76.656 E1.8996
G1 X133.5 Y77.622 E1.94181
G1 X134.1 Y78.415 E1.97488
G1 X134.227 Y78.586 E1.98197
G1 X157.349 Y110.41 E3.29032
G1 X157.751 Y110.978 E3.31346
G1 X158.259 Y111.766 E3.34465
G1 X158.699 Y112.595 E3.37586
G1 X159.067 Y113.458 E3.40707
G1 X159.359 Y114.349 E3.43825
G1 X159.575 Y115.261 E3.46942
G1 X159.712 Y116.189 E3.50062
G1 X159.77 Y117.125 E3.53181
G1 X159.748 Y118.063 E3.56302
G1 X159.646 Y118.995 E3.5942
G1 X159.465 Y119.915 E3.62539
G1 X159.206 Y120.817 E3.6566
G1 X158.871 Y121.693 E3.6878
G1 X158.463 Y122.537 E3.71898
G1 X157.811 Y123.602 E3.76051
G1 X157.27 Y124.382 E3.79208
G1 X157.151 Y124.55 E3.79893
G1 X133.941 Y156.712 E5.1181
G1 X133.515 Y157.285 E5.14185
G1 X132.924 Y158.013 E5.17304
G1 X132.272 Y158.688 E5.20425
G1 X131.566 Y159.305 E5.23544
G1 X130.81 Y159.86 E5.26663
G1 X130.009 Y160.349 E5.29784
G1 X129.17 Y160.767 E5.32902
G1 X128.298 Y161.112 E5.36021
G1 X127.4 Y161.382 E5.3914
G1 X126.482 Y161.575 E5.4226
G1 X125.551 Y161.688 E5.45379
G1 X124.614 Y161.722 E5.48498
G1 X123.677 Y161.676 E5.51618
G1 X122.748 Y161.55 E5.54736
G1 X121.635 Y161.29 E5.58538
G1 X121.403 Y161.223 E5.59341
G1 X121.099 Y161.131 E5.60397
G1 X120.781 Y161.029 E5.61508
G1 X83.483 Y148.837 E6.92021
G1 X82.673 Y148.561 E6.94867
G1 X81.799 Y148.221 E6.97986
G1 X80.957 Y147.808 E7.01106
G1 X80.153 Y147.325 E7.04225
G1 X79.394 Y146.775 E7.07343
G1 X78.684 Y146.162 E7.10463
G1 X78.028 Y145.491 E7.13584
G1 X77.433 Y144.766 E7.16703
G1 X76.901 Y143.994 E7.19821
G1 X76.437 Y143.178 E7.22944
G1 X76.044 Y142.327 E7.26061
G1 X75.725 Y141.445 E7.29181
G1 X75.483 Y140.539 E7.323
G1 X75.318 Y139.616 E7.35418
G1 X75.222 Y138.364 E7.39595
G1 X75.203 Y137.394 E7.42822
G1 X75.201 Y137.179 E7.43537
G1 X75.202 Y97.282 E8.76235
G1 X75.212 Y96.621 E8.78433
G1 X75.266 Y95.684 E8.81555
G1 X75.4 Y94.756 E8.84674
G1 X75.612 Y93.842 E8.87794
G1 X75.902 Y92.95 E8.90914
G1 X76.266 Y92.086 E8.94032
G1 X76.703 Y91.256 E8.97152
G1 X77.208 Y90.466 E9.00271
G1 X77.779 Y89.722 E9.0339
G1 X78.412 Y89.03 E9.06509
G1 X79.101 Y88.394 E9.09628
G0 F6000 X79.489 Y88.591
G1 F1200 X80.226 Y88.038 E9.12693
G1 X81.008 Y87.552 E9.15755
G1 X81.829 Y87.135 E9.18818
G1 X82.731 Y86.774 E9.22049
G1 X83.646 Y86.456 E9.25271
G1 X83.85 Y86.388 E9.25986
G1 X120.94 Y74.336 E10.55697
G1 X121.584 Y74.136 E10.5794
G1 X122.474 Y73.901 E10.61002
G1 X123.382 Y73.745 E10.64066
G1 X124.299 Y73.668 E10.67127
G1 X125.22 Y73.67 E10.7019
G1 X126.137 Y73.753 E10.73252
G1 X127.043 Y73.915 E10.76313
G1 X127.932 Y74.155 E10.79376
G1 X128.797 Y74.471 E10.82439
G1 X129.631 Y74.861 E10.85501
G1 X130.428 Y75.322 E10.88564
G1 X131.182 Y75.85 E10.91625
G1 X131.887 Y76.442 E10.94687
G1 X132.538 Y77.092 E10.97747
G1 X133.181 Y77.863 E11.01086
G1 X133.781 Y78.656 E11.04393
G1 X133.903 Y78.821 E11.05076
G1 X157.022 Y110.641 E12.35894
G1 X157.424 Y111.209 E12.38209
G1 X157.923 Y111.983 E12.41272
G1 X158.353 Y112.797 E12.44334
G1 X158.71 Y113.646 E12.47397
G1 X158.993 Y114.522 E12.50459
G1 X159.198 Y115.42 E12.53522
G1 X159.325 Y116.332 E12.56585
G1 X159.372 Y117.251 E12.59646
G1 X159.339 Y118.171 E12.62708
G1 X159.226 Y119.085 E12.65771
G1 X159.035 Y119.985 E12.68831
G1 X158.766 Y120.866 E12.71894
G1 X158.422 Y121.72 E12.74957
G1 X158.005 Y122.54 E12.78016
G1 X157.482 Y123.374 E12.81291
G1 X156.827 Y124.316 E12.85107
G1 X133.62 Y156.473 E14.17005
G1 X133.194 Y157.046 E14.19379
G1 X132.613 Y157.761 E14.22444
G1 X131.972 Y158.422 E14.25506
G1 X131.277 Y159.025 E14.28567
G1 X130.531 Y159.565 E14.3163
G1 X129.742 Y160.039 E14.34691
G1 X128.914 Y160.443 E14.37755
G1 X128.055 Y160.773 E14.40816
G1 X127.17 Y161.027 E14.43878
G1 X126.266 Y161.204 E14.46942
G1 X125.351 Y161.301 E14.50002
G1 X124.431 Y161.319 E14.53063
G1 X123.512 Y161.257 E14.56126
G1 X122.602 Y161.115 E14.5919
G1 X121.746 Y160.906 E14.6212
G1 X121.514 Y160.839 E14.62924
G1 X121.222 Y160.75 E14.63939
G1 X83.483 Y148.415 E15.95994
G1 X82.802 Y148.183 E15.98387
G1 X81.944 Y147.848 E16.0145
G1 X81.119 Y147.441 E16.0451
G1 X80.331 Y146.963 E16.07575
G1 X79.589 Y146.419 E16.10636
G1 X78.896 Y145.812 E16.137
G1 X78.259 Y145.148 E16.1676
G1 X77.682 Y144.431 E16.19821
G1 X77.169 Y143.666 E16.22885
G1 X76.724 Y142.86 E16.25947
G1 X76.351 Y142.018 E16.2901
G1 X76.053 Y141.147 E16.32072
G1 X75.831 Y140.254 E16.35132
G1 X75.688 Y139.344 E16.38196
G1 X75.622 Y138.357 E16.41486
G1 X75.603 Y137.387 E16.44713
G1 X75.601 Y137.179 E16.45405
G1 X75.602 Y97.288 E17.78083
G1 X75.612 Y96.627 E17.80282
G1 X75.666 Y95.708 E17.83343
G1 X75.8 Y94.797 E17.86406
G1 X76.012 Y93.901 E17.89468
G1 X76.3 Y93.027 E17.92529
G1 X76.664 Y92.181 E17.95592
G1 X77.1 Y91.37 E17.98655
G1 X77.604 Y90.6 E18.01716
G1 X78.174 Y89.876 E18.0478
G1 X78.804 Y89.205 E18.07842
G1 X79.489 Y88.591 E18.10901
G0 F6000 X79.877 Y88.792
G1 F1200 X80.609 Y88.263 E18.13905
G1 X81.385 Y87.801 E18.16909
G1 X82.199 Y87.409 E18.19914
G1 X82.863 Y87.152 E18.22282
G1 X83.778 Y86.834 E18.25504
G1 X83.974 Y86.768 E18.26192
G1 X121.059 Y74.718 E19.55885
G1 X121.703 Y74.518 E19.58128
G1 X122.576 Y74.289 E19.6113
G1 X123.467 Y74.137 E19.64136
G1 X124.367 Y74.065 E19.67139
G1 X125.27 Y74.073 E19.70142
G1 X126.169 Y74.161 E19.73147
G1 X127.056 Y74.328 E19.76149
G1 X127.926 Y74.573 E19.79155
G1 X128.77 Y74.894 E19.82158
G1 X129.582 Y75.288 E19.8516
G1 X130.357 Y75.753 E19.88166
G1 X131.087 Y76.284 E19.91169
G1 X131.768 Y76.878 E19.94174
G1 X132.393 Y77.529 E19.97176
G1 X132.862 Y78.105 E19.99646
G1 X133.58 Y79.056 E20.0361
G1 X156.696 Y110.872 E21.34412
G1 X157.098 Y111.44 E21.36726
G1 X157.586 Y112.2 E21.3973
G1 X158.006 Y113 E21.42735
G1 X158.353 Y113.834 E21.4574
G1 X158.625 Y114.695 E21.48743
G1 X158.82 Y115.577 E21.51747
G1 X158.936 Y116.472 E21.54749
G1 X158.972 Y117.375 E21.57755
G1 X158.928 Y118.277 E21.60758
G1 X158.805 Y119.171 E21.6376
G1 X158.603 Y120.052 E21.66766
G1 X158.324 Y120.91 E21.69767
G1 X157.97 Y121.741 E21.72771
G1 X157.544 Y122.538 E21.75777
G1 X157.153 Y123.146 E21.78181
G1 X156.502 Y124.082 E21.81973
G1 X133.299 Y156.235 E23.13853
G1 X132.873 Y156.808 E23.16227
G1 X132.302 Y157.508 E23.19232
G1 X131.672 Y158.155 E23.22236
G1 X130.987 Y158.744 E23.2524
G1 X130.253 Y159.269 E23.28242
G1 X129.475 Y159.728 E23.31246
G1 X128.66 Y160.116 E23.34248
G1 X127.813 Y160.431 E23.37254
G1 X126.942 Y160.67 E23.40258
G1 X126.054 Y160.83 E23.43259
G1 X125.154 Y160.911 E23.46265
G1 X124.251 Y160.913 E23.49268
G1 X123.351 Y160.834 E23.52273
G1 X122.462 Y160.676 E23.55276
G1 X121.857 Y160.522 E23.57353
G1 X121.625 Y160.455 E23.58156
G1 X121.344 Y160.369 E23.59133
G1 X121.03 Y160.268 E23.6023
G1 X83.612 Y148.036 E24.91164
G1 X82.931 Y147.804 E24.93557
G1 X82.09 Y147.475 E24.9656
G1 X81.281 Y147.073 E24.99565
G1 X80.511 Y146.602 E25.02567
G1 X79.786 Y146.063 E25.05572
G1 X79.111 Y145.463 E25.08576
G1 X78.492 Y144.806 E25.11578
G1 X77.933 Y144.096 E25.14584
G1 X77.44 Y143.34 E25.17586
G1 X77.015 Y142.543 E25.2059
G1 X76.662 Y141.711 E25.23596
G1 X76.385 Y140.852 E25.26598
G1 X76.184 Y139.971 E25.29603
G1 X76.062 Y139.077 E25.32604
G1 X76.022 Y138.349 E25.35029
G1 X76.003 Y137.379 E25.38256
G1 X76.001 Y137.179 E25.38921
G1 X76.002 Y97.294 E26.71579
G1 X76.012 Y96.633 E26.73778
G1 X76.066 Y95.731 E26.76783
G1 X76.199 Y94.838 E26.79786
G1 X76.411 Y93.96 E26.82791
G1 X76.699 Y93.104 E26.85794
G1 X77.062 Y92.277 E26.88798
G1 X77.497 Y91.486 E26.91801
G1 X78 Y90.736 E26.94804
G1 X78.567 Y90.033 E26.97808
G1 X79.195 Y89.383 E27.00814
G1 X79.877 Y88.792 E27.03816
G1 F2700 E20.53816
;MESH:Engram - Dan final copy (1).stl
G0 F6000 X98.836 Y105.745
G0 X97.645 Y104.879
G0 X95.027 Y110.788
G0 X94.028 Y117.108
G0 X95.027 Y123.427
G0 X97.932 Y129.126
G0 X102.457 Y133.65
G0 X108.156 Y136.555
G0 X114.475 Y137.717
;TYPE:WALL-INNER
G1 F2700 E27.03816
G1 F1200 X120.844 Y136.709 E27.25263
G1 X126.589 Y133.782 E27.46708
G1 X131.149 Y129.222 E27.68157
G1 X134.076 Y123.477 E27.89602
G1 X135.084 Y117.108 E28.11049
G1 X134.076 Y110.738 E28.32499
G1 X131.149 Y104.993 E28.53944
G1 X126.589 Y100.433 E28.75393
G1 X120.844 Y97.506 E28.96838
G1 X114.475 Y96.498 E29.18285
G1 X108.106 Y97.506 E29.39732
G1 X102.361 Y100.433 E29.61177
G1 X97.8 Y104.993 E29.82628
G1 X94.873 Y110.738 E30.04073
G1 X93.865 Y117.108 E30.25524
G1 X94.873 Y123.477 E30.46971
G1 X97.8 Y129.222 E30.68416
G1 X102.361 Y133.782 E30.89867
G1 X108.106 Y136.709 E31.11312
G1 X114.475 Y137.717 E31.32759
G0 F6000 X114.475 Y137.312
;TYPE:WALL-OUTER
G1 F1200 X120.719 Y136.324 E31.53785
G1 X126.351 Y133.454 E31.74809
G1 X130.821 Y128.984 E31.95835
G1 X133.691 Y123.352 E32.16859
G1 X134.679 Y117.108 E32.37885
G1 X133.691 Y110.863 E32.58914
G1 X130.821 Y105.231 E32.79938
G1 X126.351 Y100.761 E33.00964
G1 X120.719 Y97.891 E33.21988
G1 X114.475 Y96.903 E33.43014
G1 X108.231 Y97.891 E33.6404
G1 X102.599 Y100.761 E33.85064
G1 X98.128 Y105.231 E34.06092
G1 X95.258 Y110.863 E34.27116
G1 X94.27 Y117.108 E34.48145
G1 X95.258 Y123.352 E34.69171
G1 X98.128 Y128.984 E34.90195
G1 X102.599 Y133.454 E35.11223
G1 X108.231 Y136.324 E35.32247
G1 X114.475 Y137.312 E35.53273
G0 F6000 X114.475 Y137.752
G1 F2700 E29.03273
G0 F6000 X120.904 Y136.892
G0 X120.447 Y135.492
G0 X130.502 Y143.818
G0 X129.306 Y142.956
G0 X124.461 Y150.028
;TYPE:WALL-INNER
G1 F2700 E35.53273
G1 F1200 X86.801 Y137.717 E36.85053
G1 X86.801 Y97.204 E38.198
G1 X124.512 Y84.95 E39.51683
G1 X148.047 Y117.343 E40.84857
G1 X124.461 Y150.028 E42.18917
G0 F6000 X124.614 Y150.499
;TYPE:WALL-OUTER
G1 F1200 X86.401 Y138.007 E43.52632
G1 X86.401 Y96.914 E44.89308
G1 X124.665 Y84.48 E46.23126
G1 X148.541 Y117.342 E47.58228
G1 X124.614 Y150.499 E48.94224
G0 F6000 X124.312 Y149.569
;TYPE:SKIN
G1 F1200 X87.191 Y137.434 E50.24119
G1 X87.191 Y97.487 E51.56983
G1 X124.362 Y85.409 E52.86977
G1 X147.565 Y117.345 E54.18272
G1 X124.312 Y149.569 E55.5044
G1 F2700 E49.0044
G0 F6000 X124.538 Y149.733
G0 X129.335 Y142.916
G0 X130.531 Y143.778
G0 X124.5 Y133.427
G0 X125.17 Y134.74
G0 X120.88 Y136.814
G1 F2700 E55.5044
G0 F6000 X120.966 Y137.085
G1 F1200 X126.821 Y134.102 E55.72296
G1 X131.469 Y129.454 E55.94159
G1 X134.452 Y123.599 E56.16014
G1 X135.478 Y117.108 E56.37871
G1 X134.452 Y110.616 E56.59732
G1 X131.469 Y104.761 E56.81587
G1 X126.821 Y100.113 E57.0345
G1 X120.966 Y97.13 E57.25306
G1 X114.475 Y96.104 E57.47163
G1 X107.984 Y97.13 E57.6902
G1 X102.129 Y100.113 E57.90876
G1 X97.48 Y104.761 E58.12741
G1 X94.497 Y110.616 E58.34596
G1 X93.471 Y117.108 E58.56457
G1 X94.497 Y123.599 E58.78314
G1 X97.48 Y129.454 E59.0017
G1 X102.129 Y134.102 E59.22035
G1 X107.984 Y137.085 E59.4389
G1 X114.475 Y138.111 E59.65748
G1 X120.966 Y137.085 E59.87605
G1 F2700 E53.37605
G0 F6000 X120.88 Y136.814
G0 X114.475 Y137.554
G0 X108.156 Y136.555
G0 X102.247 Y133.938
G0 X103.113 Y132.746
G0 X99.246 Y143.116
G0 X99.697 Y141.732
G0 X86.979 Y137.587
G0 X86.911 Y137.13
G1 F2700 E59.87605
G0 F6000 X87.35 Y137.13
G1 F1200 X87.627 Y137.407 E59.88908
G0 F6000 X88.467 Y137.682
G1 F1200 X87.35 Y136.564 E59.94164
G0 F6000 X87.35 Y135.999
G1 F1200 X89.308 Y137.957 E60.03374
G0 F6000 X90.148 Y138.231
G1 F1200 X87.35 Y135.433 E60.16535
G0 F6000 X87.35 Y134.867
G1 F1200 X90.989 Y138.506 E60.33651
G0 F6000 X91.829 Y138.781
G1 F1200 X87.35 Y134.302 E60.54719
G0 F6000 X87.35 Y133.736
G1 F1200 X92.669 Y139.056 E60.79741
G0 F6000 X93.51 Y139.331
G1 F1200 X87.35 Y133.17 E61.08718
G0 F6000 X87.35 Y132.605
G1 F1200 X94.35 Y139.605 E61.41644
G0 F6000 X95.191 Y139.88
G1 F1200 X87.35 Y132.039 E61.78525
G0 F6000 X87.35 Y131.473
G1 F1200 X96.031 Y140.154 E62.19358
G0 F6000 X96.872 Y140.429
G1 F1200 X87.35 Y130.908 E62.64144
G0 F6000 X87.35 Y130.342
G1 F1200 X97.712 Y140.705 E63.12886
G0 F6000 X98.553 Y140.979
G1 F1200 X87.35 Y129.776 E63.65582
G0 F6000 X87.35 Y129.211
G1 F1200 X99.393 Y141.254 E64.22228
G0 F6000 X100.233 Y141.528
G1 F1200 X87.35 Y128.645 E64.82826
G0 F6000 X87.35 Y128.079
G1 F1200 X101.074 Y141.803 E65.47379
G0 F6000 X101.914 Y142.078
G1 F1200 X87.35 Y127.513 E66.15886
G0 F6000 X87.35 Y126.948
G1 F1200 X102.755 Y142.353 E66.88347
G0 F6000 X103.595 Y142.627
G1 F1200 X87.35 Y126.382 E67.64758
G0 F6000 X87.35 Y125.816
G1 F1200 X104.436 Y142.902 E68.45126
G0 F6000 X105.276 Y143.177
G1 F1200 X87.35 Y125.251 E69.29444
G0 F6000 X87.35 Y124.685
G1 F1200 X106.116 Y143.452 E70.17716
G0 F6000 X106.957 Y143.727
G1 F1200 X87.35 Y124.119 E71.09944
G0 F6000 X87.35 Y123.554
G1 F1200 X107.797 Y144.001 E72.0612
G0 F6000 X108.638 Y144.276
G1 F1200 X87.35 Y122.988 E73.06252
G0 F6000 X87.35 Y122.422
G1 F1200 X109.478 Y144.551 E74.10338
G0 F6000 X110.319 Y144.826
G1 F1200 X87.35 Y121.857 E75.18377
G0 F6000 X87.35 Y121.291
G1 F1200 X111.16 Y145.101 E76.30372
G0 F6000 X112 Y145.375
G1 F1200 X87.35 Y120.725 E77.46318
G0 F6000 X87.35 Y120.16
G1 F1200 X112.84 Y145.65 E78.66215
G0 F6000 X113.68 Y145.924
G1 F1200 X87.35 Y119.594 E79.90063
G0 F6000 X87.35 Y119.028
G1 F1200 X96.807 Y128.486 E80.34549
G0 F6000 X97.2 Y128.287
G0 X96.612 Y127.133
G0 X96.22 Y127.332
G1 F1200 X87.35 Y118.463 E80.76268
G0 F6000 X87.35 Y117.897
G1 F1200 X95.632 Y126.179 E81.15224
G0 F6000 X96.025 Y125.98
G0 X95.437 Y124.826
G0 X95.044 Y125.025
G1 F1200 X87.35 Y117.331 E81.51414
G0 F6000 X87.35 Y116.765
G1 F1200 X94.456 Y123.872 E81.84841
G0 F6000 X94.257 Y123.107
G1 F1200 X87.35 Y116.2 E82.17329
G0 F6000 X87.35 Y115.634
G1 F1200 X94.151 Y122.435 E82.49319
G0 F6000 X94.045 Y121.763
G1 F1200 X87.35 Y115.068 E82.8081
G0 F6000 X87.35 Y114.503
G1 F1200 X93.939 Y121.092 E83.11803
G0 F6000 X93.833 Y120.42
G1 F1200 X87.35 Y113.937 E83.42297
G0 F6000 X87.35 Y113.371
G1 F1200 X93.727 Y119.748 E83.72293
G0 F6000 X93.62 Y119.076
G1 F1200 X87.35 Y112.806 E84.01785
G0 F6000 X87.35 Y112.24
G1 F1200 X93.514 Y118.405 E84.30781
G0 F6000 X93.408 Y117.733
G1 F1200 X87.35 Y111.674 E84.59278
G0 F6000 X87.35 Y111.109
G1 F1200 X93.315 Y117.074 E84.87336
G0 F6000 X93.392 Y116.585
G1 F1200 X87.35 Y110.543 E85.15755
G0 F6000 X87.35 Y109.977
G1 F1200 X93.469 Y116.097 E85.44539
G0 F6000 X93.546 Y115.608
G1 F1200 X87.35 Y109.412 E85.73684
G0 F6000 X87.35 Y108.846
G1 F1200 X93.623 Y115.119 E86.0319
G0 F6000 X93.7 Y114.631
G1 F1200 X87.35 Y108.28 E86.33061
G0 F6000 X87.35 Y107.714
G1 F1200 X93.777 Y114.142 E86.63294
G0 F6000 X93.854 Y113.653
G1 F1200 X87.35 Y107.149 E86.93886
G0 F6000 X87.35 Y106.583
G1 F1200 X93.932 Y113.166 E87.24849
G0 F6000 X94.009 Y112.677
G1 F1200 X87.35 Y106.017 E87.56173
G0 F6000 X87.35 Y105.452
G1 F1200 X94.086 Y112.188 E87.87857
G0 F6000 X94.163 Y111.7
G1 F1200 X87.35 Y104.886 E88.19905
G0 F6000 X87.35 Y104.32
G1 F1200 X94.241 Y111.211 E88.52319
G0 F6000 X94.318 Y110.723
G1 F1200 X87.35 Y103.755 E88.85094
