;FLAVOR:Marlin
;TIME:27462
;Filament used: 9.99008m
;Layer height: 0.2
;MINX:71.5
;MINY:56.5
;MINZ:0.2
;MAXX:163.5
;MAXY:178.5
;MAXZ:29
;Generated with Cura_SteamEngine 4.11.0
M140 S60
M105
M190 S60
M104 S195
M105
M109 S195
M82 ;absolute extrusion mode
; Ender 3 Custom Start G-code
M221 S95 ;Set flowrate to 95 percent
G92 E0 ; Reset Extruder
G28 ; Home all axes
; M420 S1 ; Enable Mesh stored in EEPROM
G1 Z2.0 F3000 ; Move Z Axis up little to prevent scratching of Heat Bed
G1 X0.1 Y20 Z0.3 F5000.0 ; Move to start position
G1 X0.1 Y200.0 Z0.3 F1500.0 E15 ; Draw the first line
G1 X0.4 Y200.0 Z0.3 F5000.0 ; Move to side a little
G1 X0.4 Y20 Z0.3 F1500.0 E30 ; Draw the second line
G92 E0 ; Reset Extruder
G1 Z2.0 F3000 ; Move Z Axis up little to prevent scratching of Heat Bed
G1 X5 Y20 Z0.3 F5000.0 ; Move over to prevent blob squish
G92 E0
G92 E0
G1 F2700 E-6.5
;LAYER_COUNT:145
;LAYER:0
M107
G1 F300 Z0.4
G0 F6000 X74.066 Y60.458 Z0.4
;TYPE:SKIRT
G1 F300 Z0.2
G1 F2700 E0
G1 F1200 X74.698 Y59.764 E0.02966
G1 X75.386 Y59.127 E0.05928
G1 X76.126 Y58.551 E0.08891
G1 X76.912 Y58.039 E0.11855
G1 X77.739 Y57.597 E0.14818
G1 X78.601 Y57.227 E0.17782
G1 X79.491 Y56.931 E0.20746
G1 X80.403 Y56.713 E0.23709
G1 X81.33 Y56.572 E0.26671
G1 X82.201 Y56.513 E0.2943
G1 X82.522 Y56.504 E0.30445
G1 X82.83 Y56.5 E0.31418
G1 X151.793 Y56.5 E2.49321
G1 X152.649 Y56.511 E2.52026
G1 X153.585 Y56.565 E2.54988
G1 X154.513 Y56.697 E2.5795
G1 X155.427 Y56.909 E2.60915
G1 X156.319 Y57.198 E2.63878
G1 X157.184 Y57.561 E2.66842
G1 X158.014 Y57.997 E2.69804
G1 X158.805 Y58.502 E2.72769
G1 X159.549 Y59.073 E2.75733
G1 X160.242 Y59.705 E2.78696
G1 X160.879 Y60.393 E2.81659
G1 X161.454 Y61.134 E2.84622
G1 X161.965 Y61.92 E2.87585
G1 X162.407 Y62.748 E2.9055
G1 X162.776 Y63.61 E2.93513
G1 X163.071 Y64.5 E2.96476
G1 X163.289 Y65.412 E2.99438
G1 X163.429 Y66.34 E3.02404
G1 X163.487 Y67.201 E3.0513
G1 X163.496 Y67.521 E3.06142
G1 X163.5 Y67.83 E3.07118
G1 X163.499 Y166.9 E6.20151
G1 X163.49 Y167.627 E6.22448
G1 X163.439 Y168.564 E6.25413
G1 X163.307 Y169.492 E6.28375
G1 X163.098 Y170.406 E6.31338
G1 X162.811 Y171.299 E6.34301
G1 X162.449 Y172.165 E6.37267
G1 X162.015 Y172.996 E6.40229
G1 X161.511 Y173.787 E6.43193
G1 X160.942 Y174.532 E6.46155
G1 X160.311 Y175.227 E6.49121
G1 X159.624 Y175.865 E6.52084
G1 X158.885 Y176.442 E6.55046
G1 X158.099 Y176.954 E6.5801
G1 X157.273 Y177.397 E6.60972
G1 X156.411 Y177.769 E6.63938
G1 X155.522 Y178.065 E6.66899
G1 X154.61 Y178.285 E6.69863
G1 X153.683 Y178.426 E6.72826
G1 X152.799 Y178.487 E6.75626
G1 X152.478 Y178.496 E6.7664
G1 X152.17 Y178.5 E6.77613
G1 X83.065 Y178.499 E8.95965
G1 X82.367 Y178.49 E8.98171
G1 X81.431 Y178.438 E9.01133
G1 X80.502 Y178.306 E9.04098
G1 X79.588 Y178.096 E9.07061
G1 X78.695 Y177.809 E9.10025
G1 X77.83 Y177.446 E9.12989
G1 X76.999 Y177.012 E9.15951
G1 X76.208 Y176.508 E9.18915
G1 X75.463 Y175.938 E9.21879
G1 X74.769 Y175.307 E9.24843
G1 X74.132 Y174.62 E9.27803
G1 X73.555 Y173.88 E9.30768
G1 X73.043 Y173.094 E9.33732
G1 X72.6 Y172.267 E9.36696
G1 X72.229 Y171.406 E9.39658
G1 X71.933 Y170.516 E9.42622
G1 X71.714 Y169.604 E9.45586
G1 X71.573 Y168.677 E9.48548
G1 X71.513 Y167.788 E9.51364
G1 X71.504 Y167.455 E9.52416
G1 X71.5 Y167.158 E9.53355
G1 X71.501 Y68.025 E12.66587
G1 X71.51 Y67.36 E12.68688
G1 X71.563 Y66.424 E12.7165
G1 X71.695 Y65.495 E12.74615
G1 X71.906 Y64.581 E12.77579
G1 X72.194 Y63.689 E12.80541
G1 X72.557 Y62.824 E12.83505
G1 X72.992 Y61.993 E12.86469
G1 X73.496 Y61.203 E12.89429
G1 X74.066 Y60.458 E12.92393
G0 F6000 X74.461 Y60.611
G1 F1200 X75.089 Y59.939 E12.953
G1 X75.774 Y59.323 E12.9821
G1 X76.51 Y58.77 E13.01119
G1 X77.291 Y58.282 E13.04029
G1 X78.111 Y57.864 E13.06937
G1 X78.965 Y57.519 E13.09848
G1 X79.845 Y57.249 E13.12756
G1 X80.745 Y57.057 E13.15664
G1 X81.659 Y56.943 E13.18574
G1 X82.212 Y56.913 E13.20324
G1 X82.533 Y56.904 E13.21339
G1 X82.83 Y56.9 E13.22277
G1 X151.793 Y56.9 E15.40181
G1 X152.643 Y56.911 E15.42866
G1 X153.562 Y56.964 E15.45775
G1 X154.473 Y57.097 E15.48684
G1 X155.369 Y57.308 E15.51593
G1 X156.243 Y57.596 E15.545
G1 X157.09 Y57.959 E15.57412
G1 X157.901 Y58.394 E15.6032
G1 X158.671 Y58.898 E15.63228
G1 X159.395 Y59.467 E15.66137
G1 X160.067 Y60.097 E15.69048
G1 X160.682 Y60.782 E15.71957
G1 X161.235 Y61.518 E15.74865
G1 X161.722 Y62.299 E15.77774
G1 X162.139 Y63.12 E15.80683
G1 X162.484 Y63.974 E15.83593
G1 X162.753 Y64.854 E15.86501
G1 X162.945 Y65.755 E15.89412
G1 X163.058 Y66.668 E15.92319
G1 X163.087 Y67.212 E15.9404
G1 X163.096 Y67.532 E15.95051
G1 X163.1 Y67.83 E15.95993
G1 X163.099 Y166.895 E19.0901
G1 X163.09 Y167.622 E19.11307
G1 X163.039 Y168.541 E19.14216
G1 X162.908 Y169.453 E19.17127
G1 X162.698 Y170.349 E19.20035
G1 X162.412 Y171.224 E19.22943
G1 X162.051 Y172.071 E19.25853
G1 X161.617 Y172.883 E19.28762
G1 X161.115 Y173.655 E19.31671
G1 X160.547 Y174.38 E19.34581
G1 X159.919 Y175.053 E19.3749
G1 X159.235 Y175.669 E19.40398
G1 X158.5 Y176.223 E19.43307
G1 X157.72 Y176.712 E19.46216
G1 X156.9 Y177.131 E19.49125
G1 X156.047 Y177.477 E19.52034
G1 X155.167 Y177.748 E19.54943
G1 X154.267 Y177.941 E19.57851
G1 X153.353 Y178.056 E19.60762
G1 X152.788 Y178.087 E19.6255
G1 X152.467 Y178.096 E19.63565
G1 X152.17 Y178.1 E19.64503
G1 X83.07 Y178.099 E21.8284
G1 X82.372 Y178.09 E21.85045
G1 X81.453 Y178.038 E21.87954
G1 X80.542 Y177.907 E21.90862
G1 X79.646 Y177.697 E21.9377
G1 X78.771 Y177.41 E21.96679
G1 X77.924 Y177.048 E21.9959
G1 X77.112 Y176.614 E22.02499
G1 X76.341 Y176.112 E22.05406
G1 X75.616 Y175.544 E22.08316
G1 X74.943 Y174.915 E22.11227
G1 X74.328 Y174.231 E22.14133
G1 X73.774 Y173.496 E22.17041
G1 X73.286 Y172.715 E22.19951
G1 X72.867 Y171.895 E22.22861
G1 X72.521 Y171.042 E22.25769
G1 X72.251 Y170.162 E22.28678
G1 X72.058 Y169.261 E22.31589
G1 X71.944 Y168.348 E22.34496
G1 X71.913 Y167.777 E22.36303
G1 X71.904 Y167.444 E22.37356
G1 X71.9 Y167.158 E22.3826
G1 X71.901 Y68.031 E25.51472
G1 X71.91 Y67.366 E25.53574
G1 X71.962 Y66.446 E25.56485
G1 X72.094 Y65.535 E25.59394
G1 X72.305 Y64.639 E25.62303
G1 X72.592 Y63.764 E25.65212
G1 X72.955 Y62.918 E25.68121
G1 X73.389 Y62.106 E25.7103
G1 X73.892 Y61.335 E25.73939
G1 X74.461 Y60.611 E25.76848
G0 F6000 X74.855 Y60.767
G1 F1200 X75.481 Y60.117 E25.797
G1 X76.162 Y59.524 E25.82553
G1 X76.894 Y58.994 E25.85409
G1 X77.669 Y58.531 E25.88261
G1 X78.482 Y58.138 E25.91114
G1 X79.327 Y57.818 E25.93969
G1 X80.196 Y57.575 E25.9682
G1 X81.084 Y57.409 E25.99675
G1 X82.223 Y57.313 E26.03287
G1 X82.544 Y57.304 E26.04301
G1 X82.83 Y57.3 E26.05205
G1 X151.793 Y57.3 E28.23108
G1 X152.637 Y57.311 E28.25775
G1 X153.539 Y57.364 E28.2863
G1 X154.432 Y57.496 E28.31483
G1 X155.31 Y57.707 E28.34336
G1 X156.166 Y57.995 E28.37189
G1 X156.993 Y58.357 E28.40042
G1 X157.785 Y58.792 E28.42897
G1 X158.536 Y59.294 E28.45751
G1 X159.239 Y59.861 E28.48605
G1 X159.889 Y60.488 E28.51459
G1 X160.481 Y61.17 E28.54312
G1 X161.011 Y61.901 E28.57165
G1 X161.473 Y62.677 E28.60019
G1 X161.866 Y63.49 E28.62872
G1 X162.184 Y64.335 E28.65725
G1 X162.427 Y65.205 E28.68579
G1 X162.592 Y66.093 E28.71433
G1 X162.687 Y67.223 E28.75016
G1 X162.696 Y67.543 E28.76027
G1 X162.7 Y67.83 E28.76934
G1 X162.699 Y166.89 E31.89935
G1 X162.69 Y167.617 E31.92233
G1 X162.639 Y168.519 E31.95087
G1 X162.508 Y169.413 E31.97942
G1 X162.299 Y170.291 E32.00794
G1 X162.013 Y171.148 E32.03649
G1 X161.652 Y171.976 E32.06503
G1 X161.22 Y172.768 E32.09353
G1 X160.719 Y173.52 E32.12208
G1 X160.153 Y174.224 E32.15063
G1 X159.528 Y174.875 E32.17914
G1 X158.847 Y175.469 E32.20769
G1 X158.116 Y176 E32.23624
G1 X157.342 Y176.464 E32.26476
G1 X156.529 Y176.858 E32.2933
G1 X155.685 Y177.178 E32.32182
G1 X154.815 Y177.423 E32.35038
G1 X153.928 Y177.589 E32.3789
G1 X152.777 Y177.687 E32.4154
G1 X152.456 Y177.696 E32.42554
G1 X152.17 Y177.7 E32.43458
G1 X83.075 Y177.699 E34.61778
G1 X82.377 Y177.69 E34.63984
G1 X81.476 Y177.639 E34.66835
G1 X80.582 Y177.507 E34.69691
G1 X79.704 Y177.298 E34.72543
G1 X78.847 Y177.011 E34.75398
G1 X78.02 Y176.65 E34.78249
G1 X77.227 Y176.217 E34.81104
G1 X76.476 Y175.716 E34.83957
G1 X75.772 Y175.15 E34.86811
G1 X75.121 Y174.524 E34.89665
G1 X74.528 Y173.843 E34.92518
G1 X73.998 Y173.112 E34.95371
G1 X73.534 Y172.337 E34.98225
G1 X73.14 Y171.524 E35.0108
G1 X72.82 Y170.68 E35.03932
G1 X72.576 Y169.81 E35.06787
G1 X72.41 Y168.922 E35.09641
G1 X72.313 Y167.767 E35.13303
G1 X72.304 Y167.434 E35.14356
G1 X72.3 Y167.158 E35.15228
G1 X72.301 Y68.036 E38.28425
G1 X72.31 Y67.371 E38.30527
G1 X72.362 Y66.469 E38.33381
G1 X72.494 Y65.576 E38.36234
G1 X72.704 Y64.698 E38.39086
G1 X72.991 Y63.841 E38.41942
G1 X73.353 Y63.014 E38.44794
G1 X73.786 Y62.222 E38.47646
G1 X74.288 Y61.471 E38.50501
G1 X74.855 Y60.767 E38.53357
G1 F2700 E32.03357
G1 F300 Z0.4
;MESH:Zero Engram Case - Top.stl
G0 F6000 X117.5 Y143.239 Z0.4
;TYPE:WALL-INNER
G1 F300 Z0.2
G1 F2700 E38.53357
G1 F1200 X121.944 Y142.846 E38.67453
G1 X126.254 Y141.686 E38.81556
G1 X130.308 Y139.782 E38.95708
G1 X133.961 Y137.206 E39.09832
G1 X137.106 Y134.043 E39.23926
G1 X139.67 Y130.356 E39.38116
G1 X141.551 Y126.302 E39.52237
G1 X142.704 Y121.969 E39.66404
G1 X143.093 Y117.502 E39.80572
G1 X142.704 Y113.035 E39.9474
G1 X141.545 Y108.689 E40.08952
G1 X139.665 Y104.635 E40.23072
G1 X137.096 Y100.952 E40.3726
G1 X133.951 Y97.788 E40.51356
G1 X130.298 Y95.214 E40.65476
G1 X126.254 Y93.318 E40.79589
G1 X121.944 Y92.157 E40.93693
G1 X117.5 Y91.765 E41.07789
G1 X113.056 Y92.157 E41.21885
G1 X108.746 Y93.318 E41.35989
G1 X104.702 Y95.214 E41.50102
G1 X101.039 Y97.798 E41.64266
G1 X97.894 Y100.961 E41.78359
G1 X95.335 Y104.635 E41.92507
G1 X93.449 Y108.701 E42.06669
G1 X92.296 Y113.034 E42.20836
G1 X91.906 Y117.502 E42.35007
G1 X92.296 Y121.968 E42.49172
G1 X93.455 Y126.315 E42.63388
G1 X95.335 Y130.369 E42.77507
G1 X97.894 Y134.043 E42.91655
G1 X101.049 Y137.216 E43.05793
G1 X104.702 Y139.79 E43.19913
G1 X108.746 Y141.686 E43.34026
G1 X113.056 Y142.846 E43.48129
G1 X117.5 Y143.239 E43.62225
G0 F6000 X117.5 Y142.837
;TYPE:WALL-OUTER
G1 F1200 X121.874 Y142.451 E43.76099
G1 X126.116 Y141.309 E43.8998
G1 X130.106 Y139.435 E44.03909
G1 X133.702 Y136.899 E44.17812
G1 X136.798 Y133.786 E44.31685
G1 X139.322 Y130.156 E44.45655
G1 X141.173 Y126.165 E44.59555
G1 X142.309 Y121.9 E44.73501
G1 X142.691 Y117.502 E44.8745
G1 X142.309 Y113.104 E45.01399
G1 X141.167 Y108.826 E45.15389
G1 X139.317 Y104.835 E45.29289
G1 X136.788 Y101.209 E45.43257
G1 X133.692 Y98.095 E45.57132
G1 X130.096 Y95.561 E45.71032
G1 X126.116 Y93.695 E45.84921
G1 X121.874 Y92.552 E45.98803
G1 X117.5 Y92.167 E46.12677
G1 X113.126 Y92.552 E46.26551
G1 X108.884 Y93.695 E46.40432
G1 X104.904 Y95.561 E46.54322
G1 X101.298 Y98.105 E46.68266
G1 X98.202 Y101.218 E46.82138
G1 X95.683 Y104.835 E46.96065
G1 X93.827 Y108.838 E47.10007
G1 X92.691 Y113.103 E47.23953
G1 X92.308 Y117.502 E47.37905
G1 X92.691 Y121.899 E47.51851
G1 X93.833 Y126.178 E47.65845
G1 X95.683 Y130.169 E47.79744
G1 X98.202 Y133.786 E47.93671
G1 X101.308 Y136.909 E48.07589
G1 X104.904 Y139.443 E48.21489
G1 X108.884 Y141.309 E48.35378
G1 X113.126 Y142.451 E48.49258
G1 X117.5 Y142.837 E48.63133
G0 F6000 X117.5 Y143.277
G1 F2700 E42.13133
G0 F6000 X117.5 Y143.339
G0 X151.83 Y166.83
G1 F2700 E48.63133
G0 F6000 X151.9 Y166.9
;TYPE:WALL-INNER
G1 F1200 X83.1 Y166.9 E50.80521
G1 X83.1 Y68.1 E53.92701
G1 X151.9 Y68.1 E56.10089
G1 X151.9 Y166.9 E59.22269
G0 F6000 X152.3 Y167.3
;TYPE:WALL-OUTER
G1 F1200 X82.7 Y167.3 E61.42185
G1 X82.7 Y67.7 E64.56892
G1 X152.3 Y67.7 E66.76808
G1 X152.3 Y167.3 E69.91515
G0 F6000 X151.83 Y166.83
G0 X151.51 Y166.51
;TYPE:SKIN
G1 F1200 X83.49 Y166.51 E72.06439
G1 X83.49 Y68.49 E75.16154
G1 X151.51 Y68.49 E77.31078
G1 X151.51 Y166.51 E80.40793
G1 F2700 E73.90793
G0 F6000 X130.505 Y140.121
G1 F2700 E80.40793
G1 F1200 X134.214 Y137.505 E80.55134
G1 X137.406 Y134.294 E80.6944
G1 X140.009 Y130.551 E80.83845
G1 X141.919 Y126.435 E80.98183
G1 X143.09 Y122.037 E81.12563
G1 X143.485 Y117.502 E81.26947
G1 X143.09 Y112.967 E81.4133
G1 X141.913 Y108.556 E81.55756
G1 X140.004 Y104.44 E81.70092
G1 X137.396 Y100.701 E81.84496
G1 X134.204 Y97.489 E81.98804
G1 X130.495 Y94.875 E82.13142
G1 X126.389 Y92.95 E82.2747
G1 X122.012 Y91.771 E82.41793
G1 X117.5 Y91.373 E82.56105
G1 X112.988 Y91.771 E82.70417
G1 X108.611 Y92.95 E82.8474
G1 X104.505 Y94.875 E82.99069
G1 X100.786 Y97.499 E83.13451
G1 X97.594 Y100.71 E83.27757
G1 X94.996 Y104.44 E83.4212
G1 X93.081 Y108.568 E83.56498
G1 X91.91 Y112.966 E83.70879
G1 X91.514 Y117.502 E83.85266
G1 X91.91 Y122.036 E83.99646
G1 X93.087 Y126.448 E84.14074
G1 X94.996 Y130.564 E84.2841
G1 X97.594 Y134.294 E84.42773
G1 X100.797 Y137.515 E84.57126
G1 X104.505 Y140.129 E84.71461
G1 X108.611 Y142.054 E84.8579
G1 X112.988 Y143.232 E85.00112
G1 X117.5 Y143.631 E85.14424
G1 X122.012 Y143.232 E85.28737
G1 X126.389 Y142.054 E85.43059
G1 X130.505 Y140.121 E85.57427
G1 F2700 E79.07427
G0 F6000 X83.758 Y166.348
G1 F2700 E85.57427
G1 F1200 X83.649 Y166.239 E85.57914
G0 F6000 X83.649 Y165.673
G1 F1200 X84.324 Y166.348 E85.6093
G0 F6000 X84.89 Y166.348
G1 F1200 X83.649 Y165.108 E85.66473
G0 F6000 X83.649 Y164.542
G1 F1200 X85.455 Y166.348 E85.74544
G0 F6000 X86.021 Y166.348
G1 F1200 X83.649 Y163.976 E85.85143
G0 F6000 X83.649 Y163.41
G1 F1200 X86.587 Y166.348 E85.98271
G0 F6000 X87.153 Y166.348
G1 F1200 X83.649 Y162.845 E86.13927
G0 F6000 X83.649 Y162.279
G1 F1200 X87.718 Y166.348 E86.32109
G0 F6000 X88.284 Y166.348
G1 F1200 X83.649 Y161.713 E86.52821
G0 F6000 X83.649 Y161.148
G1 F1200 X88.85 Y166.348 E86.76059
G0 F6000 X89.415 Y166.348
G1 F1200 X83.649 Y160.582 E87.01825
G0 F6000 X83.649 Y160.016
G1 F1200 X89.981 Y166.348 E87.30119
G0 F6000 X90.547 Y166.348
G1 F1200 X83.649 Y159.451 E87.60941
G0 F6000 X83.649 Y158.885
G1 F1200 X91.112 Y166.348 E87.94289
G0 F6000 X91.678 Y166.348
G1 F1200 X83.649 Y158.319 E88.30167
G0 F6000 X83.649 Y157.754
G1 F1200 X92.244 Y166.348 E88.68571
G0 F6000 X92.809 Y166.348
G1 F1200 X83.649 Y157.188 E89.09503
G0 F6000 X83.649 Y156.622
G1 F1200 X93.375 Y166.348 E89.52964
G0 F6000 X93.941 Y166.348
G1 F1200 X83.649 Y156.057 E89.98951
G0 F6000 X83.649 Y155.491
G1 F1200 X94.506 Y166.348 E90.47466
G0 F6000 X95.072 Y166.348
G1 F1200 X83.649 Y154.925 E90.9851
G0 F6000 X83.649 Y154.359
G1 F1200 X95.638 Y166.348 E91.52083
G0 F6000 X96.203 Y166.348
G1 F1200 X83.649 Y153.794 E92.0818
G0 F6000 X83.649 Y153.228
G1 F1200 X96.769 Y166.348 E92.66807
G0 F6000 X97.335 Y166.348
G1 F1200 X83.649 Y152.662 E93.27963
G0 F6000 X83.649 Y152.097
G1 F1200 X97.901 Y166.348 E93.91646
G0 F6000 X98.466 Y166.348
G1 F1200 X83.649 Y151.531 E94.57856
G0 F6000 X83.649 Y150.965
G1 F1200 X99.032 Y166.348 E95.26595
G0 F6000 X99.598 Y166.348
G1 F1200 X83.649 Y150.4 E95.97861
G0 F6000 X83.649 Y149.834
G1 F1200 X100.163 Y166.348 E96.71654
G0 F6000 X100.729 Y166.348
G1 F1200 X83.649 Y149.268 E97.47976
G0 F6000 X83.649 Y148.703
G1 F1200 X101.295 Y166.348 E98.26825
G0 F6000 X101.86 Y166.348
G1 F1200 X83.649 Y148.137 E99.08201
G0 F6000 X83.649 Y147.571
G1 F1200 X102.426 Y166.348 E99.92106
G0 F6000 X102.992 Y166.348
G1 F1200 X83.649 Y147.006 E100.78539
G0 F6000 X83.649 Y146.44
G1 F1200 X103.557 Y166.348 E101.67498
G0 F6000 X104.123 Y166.348
G1 F1200 X83.649 Y145.874 E102.58986
G0 F6000 X83.649 Y145.309
G1 F1200 X104.689 Y166.348 E103.53001
G0 F6000 X105.254 Y166.348
G1 F1200 X83.649 Y144.743 E104.49543
G0 F6000 X83.649 Y144.177
G1 F1200 X105.82 Y166.348 E105.48615
G0 F6000 X106.386 Y166.348
G1 F1200 X83.649 Y143.611 E106.50215
G0 F6000 X83.649 Y143.046
G1 F1200 X106.952 Y166.348 E107.54342
G0 F6000 X107.517 Y166.348
G1 F1200 X83.649 Y142.48 E108.60997
G0 F6000 X83.649 Y141.914
G1 F1200 X108.083 Y166.348 E109.7018
G0 F6000 X108.649 Y166.348
G1 F1200 X83.649 Y141.349 E110.81891
G0 F6000 X83.649 Y140.783
G1 F1200 X109.214 Y166.348 E111.96128
G0 F6000 X109.78 Y166.348
G1 F1200 X83.649 Y140.217 E113.12895
G0 F6000 X83.649 Y139.652
G1 F1200 X110.346 Y166.348 E114.32188
G0 F6000 X110.911 Y166.348
G1 F1200 X83.649 Y139.086 E115.54009
G0 F6000 X83.649 Y138.52
G1 F1200 X111.477 Y166.348 E116.78359
G0 F6000 X112.043 Y166.348
G1 F1200 X83.649 Y137.955 E118.05235
