;FLAVOR:Marlin
;TIME:6300
;Filament used: 2.13522m
;Layer height: 0.2
;MINX:89.489
;MINY:88.787
;MINZ:0.2
;MAXX:146.728
;MAXY:146.579
;MAXZ:19
;Generated with Cura_SteamEngine 4.11.0
M140 S60
M105
M190 S60
M104 S195
M105
M109 S195
M82 ;absolute extrusion mode
; Ender 3 Custom Start G-code
M221 S95 ;Set flowrate to 95 percent
G92 E0 ; Reset Extruder
G28 ; Home all axes
; M420 S1 ; Enable Mesh stored in EEPROM
G1 Z2.0 F3000 ; Move Z Axis up little to prevent scratching of Heat Bed
G1 X0.1 Y20 Z0.3 F5000.0 ; Move to start position
G1 X0.1 Y200.0 Z0.3 F1500.0 E15 ; Draw the first line
G1 X0.4 Y200.0 Z0.3 F5000.0 ; Move to side a little
G1 X0.4 Y20 Z0.3 F1500.0 E30 ; Draw the second line
G92 E0 ; Reset Extruder
G1 Z2.0 F3000 ; Move Z Axis up little to prevent scratching of Heat Bed
G1 X5 Y20 Z0.3 F5000.0 ; Move over to prevent blob squish
G92 E0
G92 E0
G1 F2700 E-6.5
;LAYER_COUNT:95
;LAYER:0
M107
G1 F300 Z0.4
G0 F6000 X98.343 Y96.857 Z0.4
;TYPE:SKIRT
G1 F300 Z0.2
G1 F2700 E0
G1 F1200 X99.005 Y96.192 E0.02965
G1 X99.719 Y95.589 E0.05918
G1 X99.941 Y95.417 E0.06805
G1 X100.292 Y95.155 E0.08189
G1 X100.487 Y95.014 E0.08949
G1 X101.066 Y94.606 E0.11188
G1 X101.855 Y94.099 E0.14151
G1 X102.658 Y93.673 E0.17023
G1 X103.885 Y93.088 E0.21318
G1 X104.287 Y92.902 E0.22718
G1 X106.502 Y91.804 E0.30529
G1 X108.157 Y90.915 E0.36465
G1 X109.12 Y90.411 E0.399
G1 X109.969 Y90.012 E0.42864
G1 X110.849 Y89.687 E0.45828
G1 X112.017 Y89.38 E0.49644
G1 X112.849 Y89.211 E0.52326
G1 X113.631 Y89.065 E0.5484
G1 X114.307 Y88.948 E0.57008
G1 X115.237 Y88.828 E0.5997
G1 X116.174 Y88.787 E0.62934
G1 X117.097 Y88.825 E0.65853
G1 X117.581 Y88.865 E0.67387
G1 X119.71 Y89.017 E0.74131
G1 X120.821 Y89.084 E0.77648
G1 X121.754 Y89.181 E0.80612
G1 X122.675 Y89.356 E0.83574
G1 X123.578 Y89.61 E0.86538
G1 X124.481 Y89.95 E0.89587
G1 X124.968 Y90.158 E0.9126
G1 X126.924 Y90.968 E0.9795
G1 X127.361 Y91.144 E0.99438
G1 X127.921 Y91.388 E1.01368
G1 X128.433 Y91.629 E1.03156
G1 X130.063 Y92.422 E1.08884
G1 X131.179 Y92.919 E1.12744
G1 X131.327 Y92.992 E1.13265
G1 X132.553 Y93.552 E1.17524
G1 X133.389 Y93.977 E1.20487
G1 X134.185 Y94.472 E1.23449
G1 X134.937 Y95.034 E1.26416
G1 X135.389 Y95.423 E1.283
G1 X135.633 Y95.645 E1.29342
G1 X135.892 Y95.889 E1.30467
G1 X136.372 Y96.356 E1.32583
G1 X136.919 Y96.901 E1.35022
G1 X137.554 Y97.59 E1.37983
G1 X138.129 Y98.332 E1.40949
G1 X138.782 Y99.371 E1.44827
G1 X139.258 Y100.232 E1.47935
G1 X139.525 Y100.733 E1.49729
G1 X140.776 Y102.936 E1.57734
G1 X142.076 Y105.082 E1.65662
G1 X143.118 Y106.713 E1.71777
G1 X143.8 Y107.755 E1.75712
G1 X144.28 Y108.561 E1.78676
G1 X144.577 Y109.154 E1.80772
G1 X144.717 Y109.456 E1.81824
G1 X144.836 Y109.723 E1.82747
G1 X145.494 Y111.248 E1.87995
G1 X145.737 Y111.83 E1.89988
G1 X146.061 Y112.71 E1.92951
G1 X146.309 Y113.614 E1.95913
G1 X146.479 Y114.537 E1.98878
G1 X146.552 Y115.21 E2.01017
G1 X146.636 Y116.295 E2.04456
G1 X146.652 Y116.572 E2.05333
G1 X146.703 Y117.657 E2.08765
G1 X146.713 Y117.991 E2.0982
G1 X146.726 Y118.806 E2.12396
G1 X146.728 Y119.499 E2.14586
G1 X146.691 Y120.436 E2.17549
G1 X146.568 Y121.398 E2.20613
G1 X146.414 Y122.292 E2.23479
G1 X146.364 Y122.566 E2.24359
G1 X146.264 Y123.07 E2.25983
G1 X146.179 Y123.459 E2.27241
G1 X145.873 Y124.748 E2.31427
G1 X145.715 Y125.364 E2.33437
G1 X145.544 Y125.998 E2.35511
G1 X145.262 Y126.892 E2.38473
G1 X144.904 Y127.759 E2.41437
G1 X144.616 Y128.336 E2.43475
G1 X144.157 Y129.191 E2.46541
G1 X143.98 Y129.507 E2.47685
G1 X143.632 Y130.107 E2.49877
G1 X143.128 Y130.897 E2.52838
G1 X142.557 Y131.642 E2.55804
G1 X141.926 Y132.335 E2.58765
G1 X141.367 Y132.861 E2.61191
G1 X139.292 Y134.679 E2.69907
G1 X137.455 Y136.386 E2.77831
G1 X135.638 Y138.173 E2.85884
G1 X134.287 Y139.569 E2.92022
G1 X133.926 Y139.949 E2.93678
G1 X133.377 Y140.487 E2.96107
G1 X133.307 Y140.551 E2.96406
G1 X132.97 Y140.847 E2.97824
G1 X132.451 Y141.283 E2.99965
G1 X131.85 Y141.776 E3.02422
G1 X131.311 Y142.206 E3.046
G1 X130.554 Y142.759 E3.07562
G1 X129.752 Y143.246 E3.10527
G1 X128.917 Y143.66 E3.13472
G1 X127.737 Y144.184 E3.17551
G1 X124.809 Y145.542 E3.2775
G1 X123.942 Y145.9 E3.30714
G1 X123.047 Y146.183 E3.33679
G1 X122.132 Y146.389 E3.36643
G1 X121.203 Y146.515 E3.39605
G1 X120.407 Y146.561 E3.42125
G1 X119.581 Y146.578 E3.44735
G1 X119.194 Y146.579 E3.45958
G1 X118.784 Y146.573 E3.47253
G1 X117.848 Y146.519 E3.50216
G1 X116.919 Y146.386 E3.53181
G1 X116.006 Y146.174 E3.56143
G1 X115.113 Y145.885 E3.59108
G1 X114.249 Y145.521 E3.62071
G1 X113.419 Y145.085 E3.65033
G1 X112.918 Y144.776 E3.66893
G1 X112.116 Y144.251 E3.69922
G1 X109.954 Y142.877 E3.78016
G1 X107.772 Y141.577 E3.86041
G1 X105.481 Y140.297 E3.94333
G1 X104.966 Y140.02 E3.96181
G1 X103.856 Y139.334 E4.00304
G1 X103.249 Y138.907 E4.02649
G1 X102.984 Y138.715 E4.03683
G1 X102.53 Y138.375 E4.05475
G1 X102.275 Y138.178 E4.06494
G1 X101.435 Y137.509 E4.09887
G1 X99.405 Y135.941 E4.17991
G1 X97.88 Y134.82 E4.23972
G1 X97.378 Y134.459 E4.25926
G1 X96.64 Y133.88 E4.28889
G1 X95.955 Y133.239 E4.31854
G1 X95.326 Y132.543 E4.34818
G1 X94.587 Y131.54 E4.38754
G1 X94.134 Y130.846 E4.41373
G1 X93.681 Y130.128 E4.44055
G1 X92.215 Y127.889 E4.52512
G1 X91.861 Y127.335 E4.54589
G1 X91.39 Y126.524 E4.57552
G1 X90.99 Y125.676 E4.60515
G1 X90.665 Y124.801 E4.63464
G1 X90.342 Y123.798 E4.66794
G1 X90.248 Y123.484 E4.67829
G1 X90.044 Y122.781 E4.70142
G1 X89.821 Y121.87 E4.73106
G1 X89.65 Y120.671 E4.76932
G1 X89.577 Y119.825 E4.79616
G1 X89.542 Y119.305 E4.81262
G1 X89.503 Y118.618 E4.83437
G1 X89.489 Y117.681 E4.86398
G1 X89.556 Y116.745 E4.89363
G1 X89.702 Y115.819 E4.92325
G1 X89.927 Y114.908 E4.9529
G1 X90.228 Y114.02 E4.98252
G1 X90.479 Y113.425 E5.00293
G1 X90.89 Y112.529 E5.03407
G1 X91.089 Y112.111 E5.0487
G1 X91.828 Y110.609 E5.10159
G1 X92.939 Y108.269 E5.18344
G1 X93.95 Y105.977 E5.2626
G1 X94.929 Y103.578 E5.34447
G1 X95.764 Y101.363 E5.41926
G1 X95.943 Y100.911 E5.43462
G1 X96.039 Y100.675 E5.44267
G1 X96.325 Y99.999 E5.46587
G1 X96.727 Y99.152 E5.49549
G1 X97.2 Y98.342 E5.52513
G1 X97.74 Y97.575 E5.55477
G1 X98.343 Y96.857 E5.58439
G0 F6000 X98.684 Y97.077
G1 F1200 X99.339 Y96.43 E5.61348
G1 X99.964 Y95.906 E5.63925
G1 X100.186 Y95.734 E5.64813
G1 X100.529 Y95.477 E5.66167
G1 X100.717 Y95.341 E5.669
G1 X101.296 Y94.933 E5.69138
G1 X102.071 Y94.436 E5.72047
G1 X102.831 Y94.034 E5.74764
G1 X104.052 Y93.452 E5.79038
G1 X104.439 Y93.274 E5.80384
G1 X106.677 Y92.163 E5.88278
G1 X108.343 Y91.269 E5.94253
G1 X109.306 Y90.765 E5.97687
G1 X110.139 Y90.374 E6.00595
G1 X111.004 Y90.057 E6.03505
G1 X112.097 Y89.772 E6.07074
G1 X112.923 Y89.604 E6.09738
G1 X113.699 Y89.459 E6.12232
G1 X114.375 Y89.342 E6.144
G1 X115.288 Y89.225 E6.17308
G1 X116.208 Y89.187 E6.20218
G1 X117.063 Y89.224 E6.22922
G1 X117.518 Y89.262 E6.24364
G1 X119.656 Y89.414 E6.31137
G1 X120.797 Y89.483 E6.34749
G1 X121.713 Y89.579 E6.37659
G1 X122.616 Y89.753 E6.40565
G1 X123.502 Y90.006 E6.43476
G1 X124.324 Y90.317 E6.46253
G1 X124.836 Y90.536 E6.48013
G1 X126.804 Y91.351 E6.54743
G1 X127.212 Y91.515 E6.56132
G1 X127.752 Y91.75 E6.57993
G1 X128.258 Y91.989 E6.59761
G1 X129.869 Y92.773 E6.65423
G1 X131.017 Y93.284 E6.69393
G1 X131.176 Y93.363 E6.69954
G1 X132.387 Y93.916 E6.7416
G1 X133.207 Y94.334 E6.77069
G1 X133.988 Y94.822 E6.79979
G1 X134.723 Y95.376 E6.82887
G1 X135.12 Y95.719 E6.84544
G1 X135.364 Y95.941 E6.85587
G1 X135.614 Y96.176 E6.86671
G1 X136.09 Y96.639 E6.88769
G1 X136.637 Y97.184 E6.91209
G1 X137.26 Y97.861 E6.94116
G1 X137.822 Y98.591 E6.97027
G1 X138.432 Y99.564 E7.00656
G1 X138.908 Y100.425 E7.03764
G1 X139.174 Y100.924 E7.05551
G1 X140.429 Y103.135 E7.13584
G1 X141.736 Y105.293 E7.21556
G1 X142.765 Y106.904 E7.27596
G1 X143.466 Y107.974 E7.31638
G1 X143.936 Y108.766 E7.34548
G1 X144.214 Y109.322 E7.36512
G1 X144.354 Y109.624 E7.37563
G1 X144.469 Y109.881 E7.38453
G1 X145.125 Y111.402 E7.43687
G1 X145.368 Y111.984 E7.4568
G1 X145.685 Y112.848 E7.48588
G1 X145.926 Y113.737 E7.51498
G1 X146.09 Y114.643 E7.54407
G1 X146.154 Y115.241 E7.56308
G1 X146.237 Y116.32 E7.59727
G1 X146.252 Y116.59 E7.60581
G1 X146.303 Y117.675 E7.64014
G1 X146.314 Y117.998 E7.65035
G1 X146.326 Y118.807 E7.67591
G1 X146.328 Y119.5 E7.69781
G1 X146.291 Y120.42 E7.7269
G1 X146.174 Y121.33 E7.75589
G1 X146.02 Y122.224 E7.78456
G1 X145.971 Y122.488 E7.79304
G1 X145.871 Y122.992 E7.80928
G1 X145.79 Y123.367 E7.8214
G1 X145.527 Y124.48 E7.85753
G1 X145.369 Y125.107 E7.87796
G1 X145.158 Y125.893 E7.90368
G1 X144.88 Y126.771 E7.93278
G1 X144.527 Y127.621 E7.96186
G1 X144.263 Y128.147 E7.98046
G1 X143.804 Y129.002 E8.01112
G1 X143.634 Y129.306 E8.02212
G1 X143.286 Y129.906 E8.04404
G1 X142.79 Y130.682 E8.07314
G1 X142.229 Y131.411 E8.10221
G1 X141.606 Y132.09 E8.13132
G1 X141.103 Y132.56 E8.15307
G1 X139.039 Y134.369 E8.23979
G1 X137.167 Y136.108 E8.32053
G1 X135.352 Y137.892 E8.40094
G1 X134.063 Y139.225 E8.45953
G1 X133.637 Y139.673 E8.47907
G1 X133.108 Y140.192 E8.50248
G1 X133.038 Y140.256 E8.50548
G1 X132.713 Y140.541 E8.51914
G1 X132.197 Y140.974 E8.54042
G1 X131.601 Y141.463 E8.56478
G1 X131.062 Y141.893 E8.58657
G1 X130.318 Y142.436 E8.61567
G1 X129.529 Y142.911 E8.64477
G1 X128.755 Y143.294 E8.67206
G1 X127.562 Y143.824 E8.7133
G1 X124.64 Y145.179 E8.81507
G1 X123.789 Y145.53 E8.84416
G1 X122.911 Y145.806 E8.87324
G1 X122.012 Y146.004 E8.90233
G1 X121.099 Y146.123 E8.93142
G1 X120.399 Y146.161 E8.95357
G1 X119.573 Y146.178 E8.97968
G1 X119.2 Y146.179 E8.99146
G1 X118.79 Y146.173 E9.00442
G1 X117.871 Y146.119 E9.03351
G1 X116.96 Y145.986 E9.0626
G1 X116.064 Y145.775 E9.09168
G1 X115.189 Y145.486 E9.1208
G1 X114.344 Y145.123 E9.14986
G1 X113.532 Y144.688 E9.17896
G1 X113.137 Y144.441 E9.19368
G1 X112.344 Y143.922 E9.22363
G1 X110.152 Y142.529 E9.30569
G1 X107.977 Y141.233 E9.38569
G1 X105.689 Y139.955 E9.4685
G1 X105.156 Y139.668 E9.48763
G1 X104.086 Y139.007 E9.52737
G1 X103.479 Y138.58 E9.55082
G1 X103.224 Y138.394 E9.56079
G1 X102.77 Y138.054 E9.57871
G1 X102.524 Y137.865 E9.58851
G1 X101.678 Y137.192 E9.62267
G1 X99.653 Y135.627 E9.70354
G1 X98.09 Y134.478 E9.76483
G1 X97.611 Y134.134 E9.78346
G1 X96.888 Y133.565 E9.81254
G1 X96.216 Y132.935 E9.84164
G1 X95.602 Y132.249 E9.87073
G1 X94.922 Y131.321 E9.90708
G1 X94.469 Y130.627 E9.93327
G1 X94.045 Y129.955 E9.95838
G1 X92.552 Y127.674 E10.04451
G1 X92.198 Y127.12 E10.06529
G1 X91.736 Y126.323 E10.0944
G1 X91.346 Y125.489 E10.12349
G1 X91.046 Y124.678 E10.15081
G1 X90.725 Y123.682 E10.18387
G1 X90.632 Y123.372 E10.1941
G1 X90.428 Y122.669 E10.21723
G1 X90.21 Y121.775 E10.2463
G1 X90.048 Y120.636 E10.28266
G1 X89.976 Y119.797 E10.30926
G1 X89.941 Y119.283 E10.32554
G1 X89.902 Y118.596 E10.34728
G1 X89.89 Y117.675 E10.37639
G1 X89.958 Y116.757 E10.40547
G1 X90.105 Y115.848 E10.43457
G1 X90.33 Y114.956 E10.46364
G1 X90.632 Y114.086 E10.49273
G1 X90.843 Y113.591 E10.50974
G1 X91.251 Y112.7 E10.5407
G1 X91.448 Y112.288 E10.55513
G1 X92.177 Y110.808 E10.60726
G1 X93.308 Y108.424 E10.69063
G1 X94.315 Y106.142 E10.76945
G1 X95.297 Y103.735 E10.85159
G1 X96.136 Y101.51 E10.92672
G1 X96.315 Y101.058 E10.94208
G1 X96.408 Y100.831 E10.94984
G1 X96.694 Y100.155 E10.97303
G1 X97.089 Y99.323 E11.00213
G1 X97.555 Y98.529 E11.03122
G1 X98.088 Y97.779 E11.06029
G1 X98.684 Y97.077 E11.08939
G0 F6000 X99.024 Y97.299
G1 F1200 X99.671 Y96.669 E11.11792
G1 X100.209 Y96.222 E11.14002
G1 X100.431 Y96.05 E11.1489
G1 X100.767 Y95.799 E11.16215
G1 X100.948 Y95.668 E11.16921
G1 X101.527 Y95.26 E11.19159
G1 X102.287 Y94.773 E11.22011
G1 X103.003 Y94.395 E11.24569
G1 X104.22 Y93.815 E11.28829
G1 X104.606 Y93.637 E11.30172
G1 X106.891 Y92.503 E11.38232
G1 X108.528 Y91.624 E11.44103
G1 X109.491 Y91.12 E11.47538
G1 X110.309 Y90.737 E11.50392
G1 X111.158 Y90.428 E11.53246
G1 X112.177 Y90.164 E11.56572
G1 X112.997 Y89.997 E11.59216
G1 X113.767 Y89.853 E11.61692
G1 X114.443 Y89.736 E11.63859
G1 X115.339 Y89.622 E11.66713
G1 X116.242 Y89.587 E11.69569
G1 X117.03 Y89.622 E11.72061
G1 X117.538 Y89.664 E11.73672
G1 X119.696 Y89.818 E11.80508
G1 X120.773 Y89.883 E11.83917
G1 X121.671 Y89.977 E11.8677
G1 X122.557 Y90.15 E11.89622
G1 X123.425 Y90.402 E11.92478
G1 X124.167 Y90.685 E11.94987
G1 X124.705 Y90.915 E11.96836
G1 X126.686 Y91.735 E12.0361
G1 X127.063 Y91.887 E12.04895
G1 X127.582 Y92.113 E12.06683
G1 X128.083 Y92.349 E12.08433
G1 X129.686 Y93.129 E12.14066
G1 X130.854 Y93.649 E12.18106
G1 X131.017 Y93.731 E12.18682
G1 X132.221 Y94.28 E12.22864
G1 X133.025 Y94.691 E12.25717
G1 X133.79 Y95.171 E12.2857
G1 X134.509 Y95.717 E12.31423
G1 X134.85 Y96.014 E12.32852
G1 X135.094 Y96.236 E12.33894
G1 X135.335 Y96.463 E12.3494
G1 X135.807 Y96.922 E12.3702
G1 X136.354 Y97.467 E12.3946
G1 X136.965 Y98.132 E12.42314
G1 X137.515 Y98.849 E12.45169
G1 X138.082 Y99.758 E12.48554
G1 X138.558 Y100.619 E12.51663
G1 X138.831 Y101.13 E12.53493
G1 X140.073 Y103.318 E12.61443
G1 X141.407 Y105.522 E12.69583
G1 X142.427 Y107.117 E12.75565
G1 X143.131 Y108.193 E12.79628
G1 X143.592 Y108.97 E12.82483
G1 X143.851 Y109.49 E12.84318
G1 X143.991 Y109.792 E12.8537
G1 X144.102 Y110.04 E12.86229
G1 X144.756 Y111.556 E12.91446
G1 X144.999 Y112.138 E12.93438
G1 X145.309 Y112.986 E12.96291
G1 X145.544 Y113.858 E12.99145
G1 X145.7 Y114.748 E13.02
G1 X145.755 Y115.272 E13.03665
G1 X145.826 Y116.179 E13.06539
G1 X145.853 Y116.609 E13.07901
G1 X145.904 Y117.694 E13.11333
G1 X145.914 Y118.004 E13.12313
G1 X145.926 Y118.809 E13.14857
G1 X145.928 Y119.502 E13.17046
G1 X145.891 Y120.404 E13.19899
G1 X145.78 Y121.263 E13.22635
G1 X145.626 Y122.157 E13.25502
G1 X145.579 Y122.41 E13.26315
G1 X145.479 Y122.914 E13.27938
G1 X145.401 Y123.275 E13.29105
G1 X145.138 Y124.388 E13.32719
G1 X144.943 Y125.155 E13.3522
G1 X144.772 Y125.789 E13.37295
G1 X144.499 Y126.65 E13.40149
G1 X144.15 Y127.483 E13.43002
G1 X143.911 Y127.958 E13.44682
G1 X143.452 Y128.813 E13.47749
G1 X143.288 Y129.106 E13.4881
G1 X142.94 Y129.706 E13.51001
G1 X142.453 Y130.466 E13.53853
G1 X141.9 Y131.18 E13.56707
G1 X141.287 Y131.843 E13.5956
G1 X140.84 Y132.259 E13.61489
G1 X138.769 Y134.074 E13.7019
G1 X136.898 Y135.813 E13.78262
G1 X135.067 Y137.612 E13.86372
G1 X133.773 Y138.95 E13.92254
G1 X133.347 Y139.398 E13.94207
G1 X132.838 Y139.897 E13.96459
G1 X132.768 Y139.961 E13.96759
G1 X132.455 Y140.235 E13.98073
G1 X131.943 Y140.665 E14.00186
G1 X131.351 Y141.151 E14.02606
G1 X130.812 Y141.581 E14.04785
G1 X130.082 Y142.112 E14.07637
G1 X129.307 Y142.577 E14.10493
G1 X128.592 Y142.928 E14.13009
G1 X127.434 Y143.442 E14.17013
G1 X124.472 Y144.816 E14.2733
G1 X123.637 Y145.16 E14.30183
G1 X122.774 Y145.428 E14.33038
G1 X121.892 Y145.619 E14.3589
G1 X120.995 Y145.73 E14.38746
G1 X120.391 Y145.761 E14.40657
G1 X119.565 Y145.778 E14.43267
G1 X119.206 Y145.779 E14.44402
G1 X118.796 Y145.773 E14.45697
G1 X117.894 Y145.72 E14.48552
G1 X117.001 Y145.587 E14.51405
G1 X116.123 Y145.376 E14.54258
G1 X115.267 Y145.088 E14.57112
G1 X114.44 Y144.725 E14.59965
G1 X113.356 Y144.107 E14.63908
G1 X112.54 Y143.573 E14.66989
G1 X110.34 Y142.175 E14.75226
G1 X108.171 Y140.883 E14.83203
G1 X105.919 Y139.625 E14.91353
G1 X105.346 Y139.316 E14.9341
G1 X104.316 Y138.68 E14.97235
G1 X103.709 Y138.253 E14.9958
G1 X103.464 Y138.074 E15.00539
G1 X103.01 Y137.734 E15.02331
G1 X102.773 Y137.552 E15.03275
G1 X101.931 Y136.882 E15.06675
G1 X99.869 Y135.288 E15.1491
G1 X98.356 Y134.176 E15.20843
G1 X97.845 Y133.809 E15.22831
G1 X97.135 Y133.25 E15.25687
G1 X96.478 Y132.631 E15.28539
G1 X95.879 Y131.955 E15.31393
G1 X95.257 Y131.102 E15.34728
G1 X94.708 Y130.259 E15.37907
G1 X94.361 Y129.706 E15.3997
G1 X92.889 Y127.458 E15.4846
G1 X92.535 Y126.904 E15.50538
G1 X92.083 Y126.122 E15.53391
G1 X91.702 Y125.304 E15.56243
G1 X91.426 Y124.554 E15.58768
G1 X91.165 Y123.748 E15.61445
G1 X91.051 Y123.378 E15.62668
G1 X90.812 Y122.558 E15.65367
G1 X90.599 Y121.68 E15.68222
G1 X90.447 Y120.601 E15.71665
G1 X90.375 Y119.769 E15.74303
G1 X90.34 Y119.26 E15.75915
G1 X90.301 Y118.573 E15.7809
G1 X90.29 Y117.67 E15.80943
G1 X90.359 Y116.77 E15.83795
G1 X90.507 Y115.879 E15.86649
G1 X90.733 Y115.004 E15.89504
G1 X91.207 Y113.757 E15.9372
